!!!!SEGMENT: pl-cz--iii-689--001-002_volckmer-augustin--stabat-mater-o-jak-smutna-i-strapiona.krn
!!!cenid: 17xx:1221
!!!COM: Volckmer, Augustin
!!!COM-rismID: pe30020656
!!!CDT: 1755-~1820
!!!CNT:
!!!OPR: Stabat Mater
!!!OTL: O jak smutna i strapiona
!!!OMV: 002
!!!PDT:
!!!AGN: Sacred
!!!YEC: Copyright 2022 Narodowy Instytut Fryderyka Chopina (https://polishscores.org)
!!!YEM: License CC-BY-4.0 (https://creativecommons.org/licenses/by/4.0)
!!!SMS-siglum: PL-CZ
!!!SMS-shelfmark: III-689
!!!SMS-shelfwork: 001-002 M
!!!SMS-variant:
!!!SMS-altvar:
!!!NIFC-rismSourceID: 300001407
!!!NIFC-rismChildID: 300001407
!!!NIFC-islandoraID: pl-cz:40317
!!!URL-pdf-islandora: https://repozytorium.nifc.pl/islandora/object/pl-cz%3A40317/datastream/PDF/view
!!!URL-scan: https://polish.musicsources.pl/pl/lokalizacje/galeria/rekopisy/6986/1 @EN{Scan on Polish Music Sources Website} @PL{Skany w portalu Dziedzictwo Muzyki Polskiej w otwartym dostępie}
!!!IIIF:
!!!ONB-nifc: UWAGA: części Stabat Mater: Stała Matka Boleściwa, O jak smutna i strapiona, Widziała Kochanka swego, Święta matko, Pragnę stać pod krzyżem, Niech gorzką śmierć, Daj niech rany, Ze wszech Panien, Kiedy ciało
!!!AIN: 1 alto 1 bass 2 cor 1 fagot 2 flt 2 oboe 1 organ 1 soprn 1 tenor 1 viola 2 violn
!!!key: B-
**kern	**dynam	**kern	**dynam	**kern	**dynam	**kern	**dynam	**kern	**kern	**kern	**kern	**text	**dynam	**kern	**kern	**kern	**dynam	**kern	**kern	**kern	**dynam	**kern	**dynam
*	*	*group4	*	*group4	*	*group4	*	*group3	*group3	*group3	*group3	*	*	*group2	*group2	*group1	*	*group1	*group1	*group1	*	*group1	*
*part15	*	*part14	*	*part13	*	*part12	*	*part11	*part10	*part9	*part8	*	*	*part7	*part6	*part5	*	*part4	*part3	*part2	*	*part1	*
*staff15	*	*staff14	*	*staff13	*	*staff12	*	*staff11	*staff10	*staff9	*staff8	*	*	*staff7	*staff6	*staff5	*	*staff4	*staff3	*staff2	*	*staff1	*
*I"Fundamento	*	*I"Alto Viola Oblg: per expreſsivo.	*	*I"Violino Secundo.	*	*I"Violino Primo.	*	*I"Baſso.	*I"Tenore	*I"Alto.	*I"Canto.	*	*	*I"Cors de Caſse Secondo in Dis.	*I"Cors de Caſse Primo in Dis.	*I"Fagotto	*	*I"Haubois Secunda.	*I"Haubois Primo	*I"Flauto Secondo.	*	*I"Flauto Primo.	*
*I'bc	*	*I'vla	*	*I'vl 2	*	*I'vl 1	*	*I'B	*I'T	*I'A	*I'S	*	*	*I'cor 2 in E|b	*I'cor 1 in E|b	*I'fag	*	*I'ob 2	*I'ob 1	*I'fl 2	*	*I'fl 1	*
*Iorgan	*	*Iviola	*	*Ivioln	*	*Ivioln	*	*Ibass	*Itenor	*Ialto	*Isoprn	*	*	*Icor	*Icor	*Ifagot	*	*Ioboe	*Ioboe	*Iflt	*	*Iflt	*
*ICklav	*	*ICstr	*	*ICstr	*	*ICstr	*	*ICvox	*ICvox	*ICvox	*ICvox	*	*	*ICbras	*ICbras	*ICww	*	*ICww	*ICww	*ICww	*	*ICww	*
*	*	*	*	*	*	*	*	*IGcoro	*IGcoro	*IGcoro	*IGcoro	*	*	*	*	*	*	*	*	*	*	*	*
*	*	*	*	*	*	*	*	*tacet	*tacet	*tacet	*	*	*	*tacet	*tacet	*	*	*tacet	*tacet	*	*	*	*
*clefF4	*	*clefC3	*	*clefG2	*	*clefG2	*	*	*	*	*clefC1	*	*	*	*	*clefF4	*	*	*	*clefG2	*	*clefG2	*
*k[e-b-]	*	*k[b-e-]	*	*k[b-e-]	*	*k[b-e-]	*	*	*	*	*k[b-e-]	*	*	*	*	*k[b-e-]	*	*	*	*k[b-e-]	*	*k[b-e-]	*
*B-:	*	*B-:	*	*B-:	*	*B-:	*	*	*	*	*B-:	*	*	*	*	*B-:	*	*	*	*B-:	*	*B-:	*
*M2/2	*	*M2/2	*	*M2/2	*	*M2/2	*	*	*	*	*M2/2	*	*	*	*	*M2/2	*	*	*	*M2/2	*	*M2/2	*
*met(c|)	*	*met(c|)	*	*met(c|)	*	*met(c|)	*	*	*	*	*met(c|)	*	*	*	*	*met(C.)	*	*	*	*met(c|)	*	*met(c|)	*
*	*	*all\right	*	*	*	*	*	*	*	*	*	*	*	*	*	*all\right	*	*	*	*all\right	*	*all\right	*
=	=	=	=	=	=	=	=	=	=	=	=	=	=	=	=	=	=	=	=	=	=	=	=
!	!	!	!	!	!	!LO:TX:a:i:t=Aria	!	!	!	!	!LO:TX:a:t=Aria Ima	!	!	!	!	!LO:TX:a:t=Aria	!	!	!	!	!	!	!
!LO:TX:a:Bi:t=Adagio\nAfectuoso&colon;	!	!LO:TX:a:Bi:t=Affectuoso	!LO:DY:t=p&colon;	!LO:TX:a:Bi:t=afectuoso\nAdagio Aria.	!	!LO:TX:a:Bi:t=Adagio\nAfectuodo	!	!LO:TX:a:t=Aria Ima Canto Solo Tacet	!LO:TX:a:t=Aria Ima Canto Solo Tacet	!LO:TX:a:t=Aria Ima Canto Solo Tacet	!LO:TX:t=P:problem:brak przedtaktu	!	!	!LO:TX:a:t=Aria Ima Tacet	!LO:TX:a:t=Aria Imo Tacet	!LO:TX:a:t=Largo	!	!LO:TX:a:t=Aria I.\nTacet	!LO:TX:a:t=Aria Imo Tacet	!LO:TX:a:t=adagio	!	!LO:TX:a:t=adagio	!
2r	.	4B-/	p	4f/	p	4dd\	.	2ryy	2ryy	2ryy	2ryy	.	.	2ryy	2ryy	2r	.	2ryy	2ryy	2r	.	2r	.
.	.	4B-/	.	4f/	.	4dd\	.	.	.	.	.	.	.	.	.	.	.	.	.	.	.	.	.
=1	=1	=1	=1	=1	=1	=1	=1	=1	=1	=1	=1	=1	=1	=1	=1	=1	=1	=1	=1	=1	=1	=1	=1
!	!	!	!	!	!	!	!	!	!	!	!LO:TX:b:t=20	!	!	!	!	!	!	!	!	!	!	!	!
!	!	!	!	!	!	!	!	!	!	!	!LO:TX:b:i:t=Adagio	!	!	!	!	!	!	!	!	!	!	!	!
!	!LO:DY:t=f.	!	!	!	!	!	!	!	!	!	!LO:TX:a:i:t=Solo.	!	!	!	!	!	!	!	!	!LO:TX:a:t=2	!	!LO:TX:a:t=1.	!
2BB-/	f	2B-/	.	2f/	.	4.dd\	.	1ryy	1ryy	1ryy	00r	.	.	1ryy	1ryy	2BB-/	.	1ryy	1ryy	0r	.	1r	.
.	.	.	.	.	.	(16ee-\LL	.	.	.	.	.	.	.	.	.	.	.	.	.	.	.	.	.
.	.	.	.	.	.	16ff\JJ)	.	.	.	.	.	.	.	.	.	.	.	.	.	.	.	.	.
2r	.	2r	.	(8g/L	.	(8ee-\L	.	.	.	.	.	.	.	.	.	2r	.	.	.	.	.	.	.
.	.	.	.	8f/	.	8dd\	.	.	.	.	.	.	.	.	.	.	.	.	.	.	.	.	.
.	.	.	.	8e-/	.	8cc\	.	.	.	.	.	.	.	.	.	.	.	.	.	.	.	.	.
.	.	.	.	8d/J)	.	8b-\J)	.	.	.	.	.	.	.	.	.	.	.	.	.	.	.	.	.
=2	=2	=2	=2	=2	=2	=2	=2	=2	=2	=2	=2	=2	=2	=2	=2	=2	=2	=2	=2	=2	=2	=2	=2
.	.	.	.	.	.	16qqb-/	.	.	.	.	.	.	.	.	.	.	.	.	.	.	.	.	.
*2\right	*	*2\right	*	*	*	*	*	*	*	*	*	*	*	*	*	*2\right	*	*	*	*	*	*	*
!	!	!	!LO:DY:t=f&colon;	!	!LO:DY:a	!	!	!	!	!	!	!	!	!	!	!	!	!	!	!	!	!	!
(2F\	.	2f\	f	(2c/	f	2a/	.	1ryy	1ryy	1ryy	.	.	.	1ryy	1ryy	2F\	.	1ryy	1ryy	.	.	2r	.
4BB-/)	.	4f\	.	4d/)	.	4b-/	.	.	.	.	.	.	.	.	.	4BB-/	.	.	.	.	.	4r	.
.	.	.	.	.	.	16qqg/	.	.	.	.	.	.	.	.	.	.	.	.	.	.	.	.	.
4r	.	4r	.	4r	.	8f|/L	.	.	.	.	.	.	.	.	.	4r	.	.	.	.	.	4ff\	.
.	.	.	.	.	.	(16e-/L	.	.	.	.	.	.	.	.	.	.	.	.	.	.	.	.	.
.	.	.	.	.	.	16f/JJ)	.	.	.	.	.	.	.	.	.	.	.	.	.	.	.	.	.
=3	=3	=3	=3	=3	=3	=3	=3	=3	=3	=3	=3	=3	=3	=3	=3	=3	=3	=3	=3	=3	=3	=3	=3
*	*	*	*	*	*	*2\right	*	*	*	*	*	*	*	*	*	*	*	*	*	*2\right	*	*2\right	*
(2BB-/	.	2B-/	.	2d/	.	2b-\	.	1ryy	1ryy	1ryy	.	.	.	1ryy	1ryy	2BB-/	.	1ryy	1ryy	2dd\	.	2bb-\	.
2F\)	.	4f\	.	4a/	.	4cc\	.	.	.	.	.	.	.	.	.	2F\	.	.	.	4aa\	.	4ccc\	.
.	.	4f\	.	4a/	.	4cc\	.	.	.	.	.	.	.	.	.	.	.	.	.	4aa\	.	4ccc\	.
=4	=4	=4	=4	=4	=4	=4	=4	=4	=4	=4	=4	=4	=4	=4	=4	=4	=4	=4	=4	=4	=4	=4	=4
*	*	*	*	*2\right	*	*	*	*	*	*	*	*	*	*	*	*	*	*	*	*	*	*	*
(<2F\	.	2a\	.	2cc\	.	(2ee-\	.	1ryy	1ryy	1ryy	.	.	.	1ryy	1ryy	2F\	.	1ryy	1ryy	2ccc\	.	2eee-\	.
!	!	!	!	!	!	!	!	!	!	!	!	!	!	!	!	!LO:TX:b:t=b	!	!	!	!	!	!	!
4BB-/)	.	4f\	.	4b-\	.	4dd\)	.	.	.	.	.	.	.	.	.	4BB-/	.	.	.	4bb-\	.	4ddd\	.
4r	.	4r	.	4r	.	8r	.	.	.	.	.	.	.	.	.	4r	.	.	.	4r	.	4r	.
!	!	!	!	!	!	!	!LO:DY:a	!	!	!	!	!	!	!	!	!	!	!	!	!	!	!	!
.	.	.	.	.	.	8b-\	p	.	.	.	.	.	.	.	.	.	.	.	.	.	.	.	.
=5	=5	=5	=5	=5	=5	=5	=5	=5	=5	=5	=5	=5	=5	=5	=5	=5	=5	=5	=5	=5	=5	=5	=5
!	!	!	!	!	!	!	!	!	!	!	!	!	!	!	!	!	!LO:DY:t=p&colon;	!	!	!LO:TX:a:t=1.	!	!LO:TX:a:t=1	!
(2G\	p	2g\	.	2b-\	.	(2ee-\	.	1ryy	1ryy	1ryy	00r	.	.	1ryy	1ryy	(2G\	p	1ryy	1ryy	1r	.	1r	.
!	!	!	!LO:DY:t=p&colon;	!	!	!	!	!	!	!	!	!	!	!	!	!	!	!	!	!	!	!	!
4F\)	.	4f\	p	4b-\	.	4dd\)	.	.	.	.	.	.	.	.	.	4F\)	.	.	.	.	.	.	.
4r	.	4r	.	4r	.	8r	.	.	.	.	.	.	.	.	.	4r	.	.	.	.	.	.	.
.	.	.	.	.	.	8b-\	.	.	.	.	.	.	.	.	.	.	.	.	.	.	.	.	.
!	!	!	!	!	!	!LO:LB:g=original	!	!	!	!	!	!	!	!	!	!	!	!	!	!	!	!	!
=6	=6	=6	=6	=6	=6	=6	=6	=6	=6	=6	=6	=6	=6	=6	=6	=6	=6	=6	=6	=6	=6	=6	=6
[2E-\	.	2e-\	.	2b-\	.	2gg\	.	1ryy	1ryy	1ryy	.	.	.	1ryy	1ryy	2E-\	.	1ryy	1ryy	2r	.	2r	.
4E-\]	.	4d\	.	4b-\	.	4ff\	.	.	.	.	.	.	.	.	.	4E-\	.	.	.	4r	.	4r	.
!	!	!	!LO:DY:t=f&colon;	!	!	!	!	!	!	!	!	!	!	!	!	!	!	!	!	!	!	!	!
4r	.	4d\	f	4r	.	4b-\	.	.	.	.	.	.	.	.	.	4r	.	.	.	4dd\	.	4bb-\	.
!	!	!	!	!LO:LB:g=original	!	!	!	!	!	!	!	!	!	!	!	!	!	!	!	!	!	!	!
=7	=7	=7	=7	=7	=7	=7	=7	=7	=7	=7	=7	=7	=7	=7	=7	=7	=7	=7	=7	=7	=7	=7	=7
4r	.	4c\	.	4r	.	(8a\L	.	1ryy	1ryy	1ryy	.	.	.	1ryy	1ryy	4r	.	1ryy	1ryy	4cc\	.	8aa\L	.
.	.	.	.	.	.	8cc\J)	.	.	.	.	.	.	.	.	.	.	.	.	.	.	.	8ccc\J	.
!	!LO:DY:t=fr.	!	!	!	!	!	!	!	!	!	!	!	!	!	!	!	!LO:DY:t=f&colon;	!	!	!	!	!	!
4F\	f	2e-\	.	2cc\	.	2ee-\	.	.	.	.	.	.	.	.	.	4F\	f	.	.	2ccc\	.	2eee-\	.
4A\	.	.	.	.	.	.	.	.	.	.	.	.	.	.	.	4A\	.	.	.	.	.	.	.
4B-\	.	4d\	.	4b-\	.	4dd\	.	.	.	.	.	.	.	.	.	4B-\	.	.	.	[4bb-\	.	4ddd\	.
=8	=8	=8	=8	=8	=8	=8	=8	=8	=8	=8	=8	=8	=8	=8	=8	=8	=8	=8	=8	=8	=8	=8	=8
[2F\	.	2d\	.	2b-\	.	2dd\	.	1ryy	1ryy	1ryy	.	.	.	1ryy	1ryy	[2F\	.	1ryy	1ryy	2bb-\]	.	2ddd\	.
.	.	.	.	.	.	16qqcc/LL	.	.	.	.	.	.	.	.	.	.	.	.	.	.	.	16qqccc/LL	.
.	.	.	.	.	.	16qqdd/JJ	.	.	.	.	.	.	.	.	.	.	.	.	.	.	.	16qqddd/JJ	.
8.F\L]	.	4c\	.	4a\	.	4cc\	.	.	.	.	.	.	.	.	.	8.F\L]	.	.	.	4aa\	.	4ccc\	.
16E-\K	.	.	.	.	.	.	.	.	.	.	.	.	.	.	.	16E-\K	.	.	.	.	.	.	.
8D\	.	4r	.	4r	.	4r	.	.	.	.	.	.	.	.	.	8D\	.	.	.	4r	.	4r	.
8C\J	.	.	.	.	.	.	.	.	.	.	.	.	.	.	.	8C\J	.	.	.	.	.	.	.
!LO:LB:g=original	!	!	!	!	!	!	!	!	!	!	!	!	!	!	!	!	!	!	!	!	!	!	!
=9	=9	=9	=9	=9	=9	=9	=9	=9	=9	=9	=9	=9	=9	=9	=9	=9	=9	=9	=9	=9	=9	=9	=9
!	!	!	!	!	!	!	!LO:DY:a	!	!	!	!	!	!	!	!	!	!	!	!	!LO:TX:a:t=2	!	!	!
2BB-/	.	2r	.	2r	p	2r	p	1ryy	1ryy	1ryy	00r	.	.	1ryy	1ryy	2BB-/	.	1ryy	1ryy	0r	.	2r	.
!	!	!	!	!	!	!	!	!	!	!	!	!	!	!	!	!	!	!	!	!	!	!LO:TX:b:i:t=Dolce	!
2r	.	4B-/	.	4f/	.	4dd\	.	.	.	.	.	.	.	.	.	2r	.	.	.	.	.	4ddd\	.
!	!	!	!LO:DY:t=p&colon;	!	!	!	!	!	!	!	!	!	!	!	!	!	!	!	!	!	!	!	!
.	.	4B-/	p	4f/	.	4dd\	.	.	.	.	.	.	.	.	.	.	.	.	.	.	.	4ddd\	.
=10	=10	=10	=10	=10	=10	=10	=10	=10	=10	=10	=10	=10	=10	=10	=10	=10	=10	=10	=10	=10	=10	=10	=10
!	!	!	!	!	!	!	!	!	!	!	!	!	!	!	!	!	!LO:DY:t=p.	!	!	!	!	!	!LO:DY:t=p&colon;
2BB-/	p	2B-/	.	2f/	.	4.dd\	.	1ryy	1ryy	1ryy	.	.	.	1ryy	1ryy	2BB-/	p	1ryy	1ryy	.	.	4.ddd\	p
.	.	.	.	.	.	(16ee-\LL	.	.	.	.	.	.	.	.	.	.	.	.	.	.	.	16eee-\LL	.
.	.	.	.	.	.	16ff\JJ)	.	.	.	.	.	.	.	.	.	.	.	.	.	.	.	16fff\JJ	.
2r	.	2r	.	8g/L	.	(8ee-\L	.	.	.	.	.	.	.	.	.	2r	.	.	.	.	.	8eee-\L	.
.	.	.	.	8f/	.	8dd\	.	.	.	.	.	.	.	.	.	.	.	.	.	.	.	8ddd\	.
.	.	.	.	8e-/	.	8cc\	.	.	.	.	.	.	.	.	.	.	.	.	.	.	.	8ccc\	.
!	!	!	!	!	!	!	!LO:DY:a	!	!	!	!	!	!	!	!	!	!	!	!	!	!	!	!
.	.	.	.	8d/J	.	8b-\J)	f	.	.	.	.	.	.	.	.	.	.	.	.	.	.	8bb-\J	.
!	!	!LO:LB:g=original	!	!	!	!	!	!	!	!	!	!	!	!	!	!	!	!	!	!	!	!	!
=11	=11	=11	=11	=11	=11	=11	=11	=11	=11	=11	=11	=11	=11	=11	=11	=11	=11	=11	=11	=11	=11	=11	=11
.	.	.	.	.	.	16qqb-/	.	.	.	.	.	.	.	.	.	.	.	.	.	.	.	8qqgg/	.
!	!LO:DY:t=fr.	!	!LO:DY:t=f&colon;	!	!	!	!	!	!	!	!	!	!	!	!	!	!LO:DY:t=f&colon;	!	!	!	!LO:DY:t=p&colon;	!	!
(2F\	f	2f\	f	2c/	.	(2a/	.	1ryy	1ryy	1ryy	.	.	.	1ryy	1ryy	2F\	f	1ryy	1ryy	2cc\	p	2aa\	.
4BB-/)	.	4f\	.	4d/	.	4b-/)	.	.	.	.	.	.	.	.	.	4BB-/	.	.	.	4dd\	.	4bb-\	.
4r	.	4r	.	4r	.	8r	.	.	.	.	.	.	.	.	.	4r	.	.	.	4r	.	4r	.
.	.	.	.	.	.	8b-/	.	.	.	.	.	.	.	.	.	.	.	.	.	.	.	.	.
=12	=12	=12	=12	=12	=12	=12	=12	=12	=12	=12	=12	=12	=12	=12	=12	=12	=12	=12	=12	=12	=12	=12	=12
!	!	!	!	!	!LO:DY:a	!	!LO:DY:a	!	!	!	!	!	!	!	!	!	!LO:DY:t=p&colon;	!	!	!LO:TX:a:t=2	!	!LO:TX:a:t=2.	!
2G\	p	2b-\	p	4g/	p	(8.ee-\L	p	1ryy	1ryy	1ryy	.	.	.	1ryy	1ryy	2G\	p	1ryy	1ryy	0r	.	0r	.
.	.	.	.	.	.	16dd\K	.	.	.	.	.	.	.	.	.	.	.	.	.	.	.	.	.
.	.	.	.	(8g/L	.	8ee-\	.	.	.	.	.	.	.	.	.	.	.	.	.	.	.	.	.
.	.	.	.	8dd/J)	.	8ff\J)	.	.	.	.	.	.	.	.	.	.	.	.	.	.	.	.	.
2E-\	.	2b-\	.	4ee-\	.	4gg\	.	.	.	.	.	.	.	.	.	2E-\	.	.	.	.	.	.	.
.	.	.	.	4ee-\	.	4gg\	.	.	.	.	.	.	.	.	.	.	.	.	.	.	.	.	.
!	!	!	!	!	!	!	!	!	!	!	!	!	!	!	!	!LO:LB:g=original	!	!	!	!	!	!	!
=13	=13	=13	=13	=13	=13	=13	=13	=13	=13	=13	=13	=13	=13	=13	=13	=13	=13	=13	=13	=13	=13	=13	=13
4D/	.	4b-\	.	(8ee-\L	.	(8gg\L	.	1ryy	1ryy	1ryy	00r	.	.	1ryy	1ryy	4D/	.	1ryy	1ryy	.	.	.	.
.	.	.	.	8dd\	.	8ff\)	.	.	.	.	.	.	.	.	.	.	.	.	.	.	.	.	.
4BB-/	.	8b-\L	.	8gg\	.	8bb-\	.	.	.	.	.	.	.	.	.	4BB-/	.	.	.	.	.	.	.
.	.	8a\J	.	8ff\J)	.	8aa\J	.	.	.	.	.	.	.	.	.	.	.	.	.	.	.	.	.
4r	.	8g\L	.	(8ee-\L	.	(8gg\L	.	.	.	.	.	.	.	.	.	4r	.	.	.	.	.	.	.
.	.	8f\	.	8dd\	.	8ff\	.	.	.	.	.	.	.	.	.	.	.	.	.	.	.	.	.
4BB-/	.	8e-\	.	8cc\	.	8ee-\	.	.	.	.	.	.	.	.	.	4BB-/	.	.	.	.	.	.	.
.	.	8d\J	.	8b-\J)	.	8dd\J)	.	.	.	.	.	.	.	.	.	.	.	.	.	.	.	.	.
!	!	!	!	!	!	!LO:LB:g=original	!	!	!	!	!	!	!	!	!	!	!	!	!	!	!	!	!
=14	=14	=14	=14	=14	=14	=14	=14	=14	=14	=14	=14	=14	=14	=14	=14	=14	=14	=14	=14	=14	=14	=14	=14
!	!LO:DY:t=f.	!	!	!	!	!	!LO:DY:a	!	!	!	!	!	!	!	!	!	!LO:DY:t=f&colon;	!	!	!	!LO:DY:t=f&colon;	!	!LO:DY:t=f&colon;
2F\	f	4r	.	4f/	.	4f/	f	1ryy	1ryy	1ryy	.	.	.	1ryy	1ryy	2F\	f	1ryy	1ryy	4ff\	f	4ff\	f
!	!	!	!LO:DY:t=f&colon;	!	!	!	!	!	!	!	!	!	!	!	!	!	!	!	!	!	!	!	!
.	.	2a\	f	2cc\	.	2ee-\	.	.	.	.	.	.	.	.	.	.	.	.	.	2ccc\	.	2eee-\	.
4A\	.	.	.	.	.	.	.	.	.	.	.	.	.	.	.	4A\	.	.	.	.	.	.	.
4B-\	.	4f\	.	4b-\	.	4dd\	.	.	.	.	.	.	.	.	.	4B-\	.	.	.	4bb-\	.	4ddd\	.
!	!	!	!	!LO:LB:g=original	!	!	!	!	!	!	!	!	!	!	!	!	!	!	!	!	!	!	!
=15	=15	=15	=15	=15	=15	=15	=15	=15	=15	=15	=15	=15	=15	=15	=15	=15	=15	=15	=15	=15	=15	=15	=15
4E-\	.	4g\	.	4e-/	.	4b-\	.	1ryy	1ryy	1ryy	.	.	.	1ryy	1ryy	4E-\	.	1ryy	1ryy	4ee-\	.	4ccc\	.
.	.	.	.	.	.	16qqff/	.	.	.	.	.	.	.	.	.	.	.	.	.	.	.	16qqfff/	.
4C\	.	4e-\	.	(8g/L	.	(8ee-\L	.	.	.	.	.	.	.	.	.	4C\	.	.	.	8gg\L	.	8eee-\L	.
.	.	.	.	16f/L	.	16dd\L	.	.	.	.	.	.	.	.	.	.	.	.	.	16ff\L	.	(16ddd\L	.
.	.	.	.	16e-/JJ)	.	16cc\JJ)	.	.	.	.	.	.	.	.	.	.	.	.	.	16ee-\JJ	.	16ccc\JJ)	.
!	!	!	!	!	!	!LO:TX:a:i:t=oboi	!	!	!	!	!	!	!	!	!	!	!	!	!	!	!	!LO:LB:g=original	!
4F\	.	4f\	.	4d/	.	4b-\	.	.	.	.	.	.	.	.	.	4F\	.	.	.	4dd\	.	4bb-\	.
4FF/	.	4f\	.	4c/	.	4a\	.	.	.	.	.	.	.	.	.	4FF/	.	.	.	4cc\	.	4aa\	.
=16	=16	=16	=16	=16	=16	=16	=16	=16	=16	=16	=16	=16	=16	=16	=16	=16	=16	=16	=16	=16	=16	=16	=16
*	*	*	*	*	*	*8va	*	*	*	*	*	*	*	*	*	*	*	*	*	*	*	*	*
!	!	!	!	!	!LO:DY:a	!	!	!	!	!	!	!	!	!	!	!	!LO:DY:t=p.	!	!	!	!LO:DY:t=p&colon;	!	!LO:DY:t=p&colon;
4BB-/	p	4f\	p	(8d/L	p	(8ff/L	.	1ryy	1ryy	1ryy	.	.	.	1ryy	1ryy	4BB-/	p	1ryy	1ryy	(8dd\L	p	(8ff\L	p
.	.	.	.	8B-/)	.	8dd/	.	.	.	.	.	.	.	.	.	.	.	.	.	8b-\)	.	8dd\)	.
4r	.	4d\	.	(8d/	.	8ff/	.	.	.	.	.	.	.	.	.	4r	.	.	.	(8dd\	.	(8ff\	.
.	.	.	.	8B-/J)	.	8dd/J)	.	.	.	.	.	.	.	.	.	.	.	.	.	8b-\J)	.	8dd\J)	.
4E-\	.	4e-\	.	(8g/L	.	(8bb-\L	.	.	.	.	.	.	.	.	.	4E-\	.	.	.	(8gg\L	.	(8bb-\L	.
.	.	.	.	8e-/	.	8gg\	.	.	.	.	.	.	.	.	.	.	.	.	.	8ee-\)	.	8gg\)	.
4r	.	4g\	.	8g/	.	8bb-\	.	.	.	.	.	.	.	.	.	4r	.	.	.	(8gg\	.	(8bb-\	.
.	.	.	.	8e-/J)	.	8gg\J)	.	.	.	.	.	.	.	.	.	.	.	.	.	8ee-\J)	.	8gg\J)	.
=17	=17	=17	=17	=17	=17	=17	=17	=17	=17	=17	=17	=17	=17	=17	=17	=17	=17	=17	=17	=17	=17	=17	=17
4BB-/	.	4f\	.	(8d/L	.	(8ff/L	.	1ryy	1ryy	1ryy	00r	.	.	1ryy	1ryy	4BB-/	.	1ryy	1ryy	(8dd\L	.	(8ff\L	.
.	.	.	.	8B-/)	.	8dd/	.	.	.	.	.	.	.	.	.	.	.	.	.	8b-\)	.	8dd\)	.
4r	.	4d\	.	(8d/	.	8ff/	.	.	.	.	.	.	.	.	.	4r	.	.	.	(8dd\	.	(8ff\	.
.	.	.	.	8B-/J)	.	8dd/J)	.	.	.	.	.	.	.	.	.	.	.	.	.	8b-\J)	.	8dd\J)	.
4E-\	.	4e-\	.	(8g/L	.	(8bb-\L	.	.	.	.	.	.	.	.	.	4E-\	.	.	.	(8gg\L	.	(8bb-\L	.
.	.	.	.	8e-/)	.	8gg\	.	.	.	.	.	.	.	.	.	.	.	.	.	8ee-\)	.	8gg\)	.
4r	.	4g\	.	(8g/	.	8bb-\	.	.	.	.	.	.	.	.	.	4r	.	.	.	(8gg\	.	(8bb-\	.
.	.	.	.	8e-/J)	.	8gg\J)	.	.	.	.	.	.	.	.	.	.	.	.	.	8ee-\J)	.	8gg\J)	.
=18	=18	=18	=18	=18	=18	=18	=18	=18	=18	=18	=18	=18	=18	=18	=18	=18	=18	=18	=18	=18	=18	=18	=18
!	!LO:DY:t=fr.	!	!	!	!LO:DY:a	!	!	!	!	!	!	!	!	!	!	!	!LO:DY:t=for&colon;	!	!	!	!LO:DY:t=f&colon;	!	!LO:DY:t=f&colon;
4D\	f	4f\	f	(4d/	f	(16ff/LL	.	1ryy	1ryy	1ryy	.	.	.	1ryy	1ryy	4D\	f	1ryy	1ryy	4dd\	f	(16ff\LL	f
.	.	.	.	.	.	16gg/	.	.	.	.	.	.	.	.	.	.	.	.	.	.	.	16gg\	.
.	.	.	.	.	.	16aa/	.	.	.	.	.	.	.	.	.	.	.	.	.	.	.	16aa\	.
.	.	.	.	.	.	16bb-/JJ)	.	.	.	.	.	.	.	.	.	.	.	.	.	.	.	16bb-\JJ)	.
4E-\	.	4g\	.	4e-/	.	16gg/LL	.	.	.	.	.	.	.	.	.	4E-\	.	.	.	4ee-\	.	(16gg\LL	.
.	.	.	.	.	.	16aa/	.	.	.	.	.	.	.	.	.	.	.	.	.	.	.	16aa\	.
.	.	.	.	.	.	16bb-/	.	.	.	.	.	.	.	.	.	.	.	.	.	.	.	16bb-\	.
.	.	.	.	.	.	16ccc/JJ	.	.	.	.	.	.	.	.	.	.	.	.	.	.	.	16ccc\JJ)	.
4F\	.	4f\	.	4d/)	.	4bb-\	.	.	.	.	.	.	.	.	.	4F\	.	.	.	4dd\	.	4bb-\	.
!	!	!	!	!LO:TX:a:i:t=perdendosi	!	!LO:TX:b:i:t=perdendosi	!	!	!	!	!	!	!	!	!	!	!	!	!	!	!	!	!
4FF/	.	4f\	.	4c/	.	4aa\	.	.	.	.	.	.	.	.	.	4FF/	.	.	.	4cc\	.	4aa\	.
!LO:LB:g=original	!	!	!	!	!	!	!	!	!	!	!	!	!	!	!	!	!	!	!	!LO:LB:g=original	!	!	!
=19	=19	=19	=19	=19	=19	=19	=19	=19	=19	=19	=19	=19	=19	=19	=19	=19	=19	=19	=19	=19	=19	=19	=19
!	!	!	!	!	!	!	!	!	!	!	!	!	!	!	!	!	!	!	!	!LO:TX:b:i:t=perdendosi	!	!	!
4BB-/	.	4f\	.	4d/	.	4bb-\	.	1ryy	1ryy	1ryy	.	.	.	1ryy	1ryy	4BB-/	.	1ryy	1ryy	4dd\	.	4bb-\	.
*	*	*	*	*	*	*X8va	*	*	*	*	*	*	*	*	*	*	*	*	*	*	*	*	*
!	!	!	!	!	!	!	!	!	!	!	!	!	!	!	!	!	!	!	!	!	!	!LO:TX:b:i:t=perdendosi	!
4r	.	2B-/	.	2f/	.	(2dd\	.	.	.	.	.	.	.	.	.	4r	.	.	.	(2ff\	.	(2ddd\	.
4r	.	.	.	.	.	.	.	.	.	.	.	.	.	.	.	4r	.	.	.	.	.	.	.
4F\	.	4f\	.	4e-/	.	4cc\)	.	.	.	.	.	.	.	.	.	4F\	.	.	.	4ee-\)	.	4ccc\)	.
=20	=20	=20	=20	=20	=20	=20	=20	=20	=20	=20	=20	=20	=20	=20	=20	=20	=20	=20	=20	=20	=20	=20	=20
!	!LO:DY:t=f&colon;	!	!	!	!	!	!	!	!	!	!	!	!	!	!	!	!LO:DY:t=f&colon;	!	!	!	!	!	!
2F\	f	2a\	.	2e-/	.	(2cc\	.	1ryy	1ryy	1ryy	.	.	.	1ryy	1ryy	2F\	f	1ryy	1ryy	2ee-\	.	2ccc\	.
!LO:TX:t=P:problem:mixed beam	!	!	!	!	!	!	!	!	!	!	!	!	!	!	!	!LO:TX:t=P:problem:mixed beam	!	!	!	!	!	!	!
8BB-/L	.	4f\	.	4d/	.	4b-\)	.	.	.	.	.	.	.	.	.	8BB-'/L	.	.	.	4dd\	.	4bb-\	.
8B-\	.	.	.	.	.	.	.	.	.	.	.	.	.	.	.	8B-'\	.	.	.	.	.	.	.
8F\	.	4r	.	4r	.	4r	.	.	.	.	.	.	.	.	.	8F'\	.	.	.	4r	.	4r	.
8D\J	.	.	.	.	.	.	.	.	.	.	.	.	.	.	.	8D'\J	.	.	.	.	.	.	.
=21	=21	=21	=21	=21	=21	=21	=21	=21	=21	=21	=21	=21	=21	=21	=21	=21	=21	=21	=21	=21	=21	=21	=21
!	!	!	!	!	!	!	!	!	!	!	!	!	!	!	!	!	!	!	!	!LO:TX:a:t=3	!	!LO:TX:a:t=2	!
2BB-/	.	2r	.	2r	.	2r	p	1ryy	1ryy	1ryy	2r	.	.	1ryy	1ryy	2BB-/	.	1ryy	1ryy	0r	.	0r	.
!	!	!	!LO:DY:t=p&colon;	!	!LO:DY:a	!	!	!	!	!	!LO:TX:a:i:t=Dolce	!	!	!	!	!	!	!	!	!	!	!	!
2r	.	4B-/	p	4f/	p	4dd\	.	.	.	.	4dd\	O!	.	.	.	2r	.	.	.	.	.	.	.
.	.	4B-/	.	4f/	.	4dd\	.	.	.	.	4dd\	iak	.	.	.	.	.	.	.	.	.	.	.
=22	=22	=22	=22	=22	=22	=22	=22	=22	=22	=22	=22	=22	=22	=22	=22	=22	=22	=22	=22	=22	=22	=22	=22
!	!	!	!	!	!	!	!	!	!	!	!	!	!	!	!	!	!LO:DY:t=pia.	!	!	!	!	!	!
2BB-/	p	2B-/	.	2f/	.	4.dd\	.	1ryy	1ryy	1ryy	(4.dd\	Smu-	.	1ryy	1ryy	2BB-/	p	1ryy	1ryy	.	.	.	.
.	.	.	.	.	.	(16ee-\LL	.	.	.	.	16ee-\LL	.	.	.	.	.	.	.	.	.	.	.	.
.	.	.	.	.	.	16ff\JJ)	.	.	.	.	16ff\JJ)	.	.	.	.	.	.	.	.	.	.	.	.
2r	.	2r	.	(8g/L	.	(8ee-\L	.	.	.	.	8ee-\L	.	.	.	.	2r	.	.	.	.	.	.	.
.	.	.	.	8f/	.	8dd\	.	.	.	.	8dd\J	.	.	.	.	.	.	.	.	.	.	.	.
.	.	.	.	8e-/	.	8cc\	.	.	.	.	8cc\	.	.	.	.	.	.	.	.	.	.	.	.
.	.	.	.	8d/J)	.	8b-\J)	.	.	.	.	8b-\	.	.	.	.	.	.	.	.	.	.	.	.
!	!	!LO:LB:g=original	!	!	!	!LO:LB:g=original	!	!	!	!	!	!	!	!	!	!	!	!	!	!	!	!	!
=23	=23	=23	=23	=23	=23	=23	=23	=23	=23	=23	=23	=23	=23	=23	=23	=23	=23	=23	=23	=23	=23	=23	=23
*	*	*	*	*	*	*	*	*	*	*	*2\right	*	*	*	*	*	*	*	*	*	*	*	*
(<2F\	.	2f\	.	(2c/	.	2a/	.	1ryy	1ryy	1ryy	2a\	.	.	1ryy	1ryy	2F\	.	1ryy	1ryy	1r	.	2r	.
4BB-/)	.	4f\	.	4d/)	.	4b-/	.	.	.	.	4b-\	-tna	.	.	.	4BB-/	.	.	.	.	.	4r	.
.	.	.	.	.	.	16qqg/	.	.	.	.	.	.	.	.	.	.	.	.	.	.	.	.	.
!	!	!	!	!	!	!	!	!	!	!	!	!	!	!	!	!	!	!	!	!	!	!	!LO:DY:t=p&colon;
4r	.	4r	.	4r	.	(8f/L	.	.	.	.	4r	.	.	.	.	4r	.	.	.	.	.	4ff\	p
.	.	.	.	.	.	16e-/L	.	.	.	.	.	.	.	.	.	.	.	.	.	.	.	.	.
.	.	.	.	.	.	16f/JJ)	.	.	.	.	.	.	.	.	.	.	.	.	.	.	.	.	.
!	!	!	!	!LO:LB:g=original	!	!	!	!	!	!	!	!	!	!	!	!	!	!	!	!	!	!	!
=24	=24	=24	=24	=24	=24	=24	=24	=24	=24	=24	=24	=24	=24	=24	=24	=24	=24	=24	=24	=24	=24	=24	=24
!	!	!	!	!	!	!	!	!	!	!	!	!	!	!	!	!	!	!	!	!	!LO:DY:t=p&colon;	!	!
2BB-/	.	(2B-/	.	2d/	.	2b-\	.	1ryy	1ryy	1ryy	2b-\	y	.	1ryy	1ryy	2BB-/	.	1ryy	1ryy	2dd\	p	2bb-\	.
2F\	.	4f'\)	.	4a/	.	[4cc\	.	.	.	.	4cc\	stra-	.	.	.	2F\	.	.	.	4aa\	.	4ccc\	.
.	.	4f'\	.	4a/	.	4cc\]	.	.	.	.	4cc\	.	.	.	.	.	.	.	.	4aa\	.	4ccc\	.
=25	=25	=25	=25	=25	=25	=25	=25	=25	=25	=25	=25	=25	=25	=25	=25	=25	=25	=25	=25	=25	=25	=25	=25
(2F\	.	[2f\	.	2cc\	.	(2ee-\	.	1ryy	1ryy	1ryy	2ee-\	-pio-	.	1ryy	1ryy	(2F\	.	1ryy	1ryy	(2ccc\	.	2eee-\	.
!	!	!	!	!	!	!	!	!	!	!	!LO:LB:g=original	!	!	!	!	!	!	!	!	!	!	!	!
4BB-/)	.	4f\]	.	4b-\	.	4dd\)	.	.	.	.	4dd\	-na	.	.	.	4BB-/)	.	.	.	4bb-\)	.	4ddd\	.
4r	.	4r	.	4r	.	8r	.	.	.	.	4r	.	.	.	.	4r	.	.	.	4r	.	4r	.
.	.	.	.	.	.	8b-\	.	.	.	.	.	.	.	.	.	.	.	.	.	.	.	.	.
!	!	!	!	!	!	!	!	!	!	!	!	!	!	!	!	!LO:PB:g=original	!	!	!	!	!	!	!
=26	=26	=26	=26	=26	=26	=26	=26	=26	=26	=26	=26	=26	=26	=26	=26	=26	=26	=26	=26	=26	=26	=26	=26
!	!	!	!	!	!	!	!	!	!	!	!	!	!	!	!	!	!	!	!	!LO:TX:a:t=4	!	!LO:TX:a:t=4.	!
(2G\	.	(2g\	.	2b-\	.	(2ee-\	.	1ryy	1ryy	1ryy	2ee-\	Mat-	.	1ryy	1ryy	(2G\	.	1ryy	1ryy	00r	.	00r	.
4F\)	.	4f\)	.	4b-\	.	4dd\)	.	.	.	.	4dd\	-ka	.	.	.	4F\)	.	.	.	.	.	.	.
4r	.	4r	.	4r	.	8r	.	.	.	.	4r	.	.	.	.	4r	.	.	.	.	.	.	.
.	.	.	.	.	.	8b-\	.	.	.	.	.	.	.	.	.	.	.	.	.	.	.	.	.
=27	=27	=27	=27	=27	=27	=27	=27	=27	=27	=27	=27	=27	=27	=27	=27	=27	=27	=27	=27	=27	=27	=27	=27
(2E-\	.	(2e-\	.	2b-\	.	(2gg\	.	1ryy	1ryy	1ryy	(2gg\	Mat-	.	1ryy	1ryy	(2E-\	.	1ryy	1ryy	.	.	.	.
4D\)	.	4d\)	.	4b-\	.	4ff\)	.	.	.	.	4ff\)	-ka	.	.	.	4D\)	.	.	.	.	.	.	.
4r	.	4r	.	4r	.	4b-\	.	.	.	.	(4b-\	ta	.	.	.	4r	.	.	.	.	.	.	.
=28	=28	=28	=28	=28	=28	=28	=28	=28	=28	=28	=28	=28	=28	=28	=28	=28	=28	=28	=28	=28	=28	=28	=28
4r	.	4c\	.	4r	.	(8a\L	.	1ryy	1ryy	1ryy	8a\L)	.	.	1ryy	1ryy	4r	.	1ryy	1ryy	.	.	.	.
.	.	.	.	.	.	8cc\J)	.	.	.	.	(8cc\J	Bło-	.	.	.	.	.	.	.	.	.	.	.
4F'\	.	(2e-\	.	2dd\	.	(2ee-\	.	.	.	.	2ee-\)	-go-	.	.	.	4F|\	.	.	.	.	.	.	.
4A'\	.	.	.	.	.	.	.	.	.	.	.	.	.	.	.	4A|\	.	.	.	.	.	.	.
!	!	!	!	!	!	!LO:SIC:v:o=4cc\)	!	!	!	!	!	!	!	!	!	!	!	!	!	!	!	!	!
4B-'\	.	4d\)	.	4b-\	.	4dd\)	.	.	.	.	4dd\	-sła-	.	.	.	4B-|\	.	.	.	.	.	.	.
=29	=29	=29	=29	=29	=29	=29	=29	=29	=29	=29	=29	=29	=29	=29	=29	=29	=29	=29	=29	=29	=29	=29	=29
[2F\	.	(2d\	.	2b-\	.	(2dd\	.	1ryy	1ryy	1ryy	2dd\	-wio-	.	1ryy	1ryy	[2F\	.	1ryy	1ryy	.	.	.	.
(8.F\L]	.	4c\)	.	4a\	.	4cc\)	.	.	.	.	4cc\	-na	.	.	.	8.F\L]	.	.	.	.	.	.	.
16E-'\Jk)	.	.	.	.	.	.	.	.	.	.	.	.	.	.	.	16E-|\K	.	.	.	.	.	.	.
8D'\L	.	4r	.	4r	.	4r	.	.	.	.	4r	.	.	.	.	8D|\	.	.	.	.	.	.	.
8C'\J	.	.	.	.	.	.	.	.	.	.	.	.	.	.	.	8C|\J	.	.	.	.	.	.	.
!LO:LB:g=original	!	!	!	!	!	!	!	!	!	!	!	!	!	!	!	!	!	!	!	!	!	!	!
=30	=30	=30	=30	=30	=30	=30	=30	=30	=30	=30	=30	=30	=30	=30	=30	=30	=30	=30	=30	=30	=30	=30	=30
2BB-/	.	2r	.	2r	.	2r	p	1ryy	1ryy	1ryy	2r	.	.	1ryy	1ryy	2BB-/	.	1ryy	1ryy	2r	.	2r	.
!	!	!	!	!	!	!	!	!	!	!	!	!	!	!	!	!	!	!	!	!	!	!	!LO:DY:t=p&colon;
2r	.	4B-/	.	4f/	.	4dd\	.	.	.	.	4dd\	O!	.	.	.	2r	.	.	.	4ff\	.	4ddd\	p
.	.	4B-/	.	4f/	.	4dd\	.	.	.	.	4dd\	iak	.	.	.	.	.	.	.	4ff\	.	4ddd\	.
=31	=31	=31	=31	=31	=31	=31	=31	=31	=31	=31	=31	=31	=31	=31	=31	=31	=31	=31	=31	=31	=31	=31	=31
!	!	!	!	!	!	!	!	!	!	!	!LO:N:vis=4	!	!	!	!	!	!	!	!	!	!	!LO:TX:b:i:t=Dolce	!
2BB-/	.	2B-/	.	2f/	.	4.dd\	.	1ryy	1ryy	1ryy	4.dd\	Smu-	.	1ryy	1ryy	2BB-/	.	1ryy	1ryy	4ff\	.	(4.ddd\	.
.	.	.	.	.	.	.	.	.	.	.	.	.	.	.	.	.	.	.	.	4r	.	.	.
.	.	.	.	.	.	(16ee-\LL	.	.	.	.	16ee-\LL	.	.	.	.	.	.	.	.	.	.	16eee-\LL	.
.	.	.	.	.	.	16ff\JJ)	.	.	.	.	16ff\JJ	.	.	.	.	.	.	.	.	.	.	16fff\JJ)	.
2r	.	2r	.	(8g/L	.	(8ee-\L	.	.	.	.	8ee-\L	.	.	.	.	2r	.	.	.	(8gg\L	.	(8eee-\L	.
.	.	.	.	8f/	.	8dd\	.	.	.	.	8dd\J	.	.	.	.	.	.	.	.	8ff\	.	8ddd\	.
.	.	.	.	8e-/	.	8cc\	.	.	.	.	8cc\L	.	.	.	.	.	.	.	.	8ee-\	.	8ccc\	.
.	.	.	.	8d/J)	.	8b-\J)	.	.	.	.	8b-\J	.	.	.	.	.	.	.	.	8dd\J)	.	8bb-\J)	.
!	!	!	!	!	!	!	!	!	!	!	!LO:LB:g=original	!	!	!	!	!	!	!	!	!	!	!	!
=32	=32	=32	=32	=32	=32	=32	=32	=32	=32	=32	=32	=32	=32	=32	=32	=32	=32	=32	=32	=32	=32	=32	=32
(2F\	.	2f\	.	2c/	.	(2a/	.	1ryy	1ryy	1ryy	2a\	.	.	1ryy	1ryy	2F\	.	1ryy	1ryy	2cc\	.	2aa\	.
4BB-\)	.	4f\	.	4d/	.	4b-/)	.	.	.	.	4b-\	-tna	.	.	.	4BB-/	.	.	.	4dd\	.	4bb-\	.
4r	.	4r	.	4r	.	4r	.	.	.	.	4r	.	.	.	.	4r	.	.	.	4r	.	4r	.
!	!	!	!	!	!	!LO:LB:g=original	!	!	!	!	!	!	!	!	!	!	!	!	!	!	!	!	!
=33	=33	=33	=33	=33	=33	=33	=33	=33	=33	=33	=33	=33	=33	=33	=33	=33	=33	=33	=33	=33	=33	=33	=33
!	!	!	!	!	!	!	!	!	!	!	!	!	!	!	!	!	!	!	!	!LO:TX:a:t=4	!	!LO:TX:a:t=3	!
(2BB-/	.	2B-/	.	2d/	.	(2b-\	.	1ryy	1ryy	1ryy	(2b-\	Mat-	.	1ryy	1ryy	(2BB-/	.	1ryy	1ryy	00r	.	0r	.
2F\)	.	2f\	.	2a/	.	2cc\)	.	.	.	.	2cc\)	-ka	.	.	.	2F\)	.	.	.	.	.	.	.
!	!	!	!	!LO:LB:g=original	!	!	!	!	!	!	!	!	!	!	!	!	!	!	!	!	!	!	!
=34	=34	=34	=34	=34	=34	=34	=34	=34	=34	=34	=34	=34	=34	=34	=34	=34	=34	=34	=34	=34	=34	=34	=34
(2F\	.	(2a\	.	2cc\	.	2ee-\	.	1ryy	1ryy	1ryy	2ee-\	Mat-	.	1ryy	1ryy	(2F\	.	1ryy	1ryy	.	.	.	.
4BB-\)	.	4f\)	.	4b-\	.	4dd\	.	.	.	.	4dd\	-ka	.	.	.	4BB-/)	.	.	.	.	.	.	.
4r	.	4r	.	4r	.	4r	.	.	.	.	4r	.	.	.	.	4r	.	.	.	.	.	.	.
!	!	!LO:LB:g=original	!	!	!	!	!	!	!	!	!	!	!	!	!	!	!	!	!	!	!	!	!
=35	=35	=35	=35	=35	=35	=35	=35	=35	=35	=35	=35	=35	=35	=35	=35	=35	=35	=35	=35	=35	=35	=35	=35
!	!	!	!	!	!	!	!	!	!	!	!LO:TX:a:t=2:color=grey	!	!	!	!	!	!	!	!	!	!	!	!
2G\	.	4b-\	.	4g/	.	8.ee-\L	.	1ryy	1ryy	1ryy	0r	.	.	1ryy	1ryy	2G\	.	1ryy	1ryy	.	.	1r	.
.	.	.	.	.	.	16dd\Jk	.	.	.	.	.	.	.	.	.	.	.	.	.	.	.	.	.
!	!	!	!LO:DY:t=p&colon;	!	!	!	!LO:DY:rj	!	!	!	!	!	!	!	!	!	!	!	!	!	!	!	!
.	.	4r	p	8g/L	.	(8ee-\L	p	.	.	.	.	.	.	.	.	.	.	.	.	.	.	.	.
.	.	.	.	8dd/J	.	8ff\J)	.	.	.	.	.	.	.	.	.	.	.	.	.	.	.	.	.
2E-\	.	4r	.	4ee-\	.	4gg|\	.	.	.	.	.	.	.	.	.	2E-\	.	.	.	.	.	.	.
.	.	4b-\	.	4ee-\	.	4gg|\	.	.	.	.	.	.	.	.	.	.	.	.	.	.	.	.	.
=36	=36	=36	=36	=36	=36	=36	=36	=36	=36	=36	=36	=36	=36	=36	=36	=36	=36	=36	=36	=36	=36	=36	=36
!	!	!	!	!	!	!	!	!	!	!	!	!	!	!	!	!	!	!	!	!	!	!LO:TX:t=P:problem:brak taktu nr 36	!
4D\	.	4b-\	.	4dd\	.	(8een\L	.	1ryy	1ryy	1ryy	.	.	.	1ryy	1ryy	4D/	.	1ryy	1ryy	.	.	1ryy	.
.	.	.	.	.	.	8ff\	.	.	.	.	.	.	.	.	.	.	.	.	.	.	.	.	.
4r	.	(8g\L	.	4r	.	8gg\	.	.	.	.	.	.	.	.	.	4BB-/	.	.	.	.	.	.	.
.	.	8f\J	.	.	.	8ff\J)	.	.	.	.	.	.	.	.	.	.	.	.	.	.	.	.	.
4r	.	8e-\L	.	2r	.	(8ee-X\L	.	.	.	.	.	.	.	.	.	4r	.	.	.	.	.	.	.
.	.	8d\	.	.	.	8dd\	.	.	.	.	.	.	.	.	.	.	.	.	.	.	.	.	.
4BB-/	.	8c\	.	.	.	8cc\	.	.	.	.	.	.	.	.	.	4BB-/	.	.	.	.	.	.	.
.	.	8B-\J)	.	.	.	8b-\J)	.	.	.	.	.	.	.	.	.	.	.	.	.	.	.	.	.
!	!	!	!	!	!	!	!	!	!	!	!	!	!	!	!	!LO:LB:g=original	!	!	!	!	!	!LO:LB:g=original	!
=37	=37	=37	=37	=37	=37	=37	=37	=37	=37	=37	=37	=37	=37	=37	=37	=37	=37	=37	=37	=37	=37	=37	=37
!	!	!	!	!	!	!	!LO:DY:a	!	!	!	!	!	!LO:DY:a:t=for&colon;	!	!	!	!	!	!	!	!	!	!
2F\	.	4f\	.	4f/	f	4f/	f	1ryy	1ryy	1ryy	4f/	O!	f	1ryy	1ryy	2F\	.	1ryy	1ryy	4dd\	.	4ff\	.
.	.	2f\	.	2cc\	.	(2ee-\	.	.	.	.	4ee-\	Jak	.	.	.	.	.	.	.	2aa\	.	(2eee-\	.
4A\	.	.	.	.	.	.	.	.	.	.	4ee-\	Smu-	.	.	.	4A\	.	.	.	.	.	.	.
4B-\	.	4f\	.	4b-\	.	4dd\)	.	.	.	.	4dd\	-tna	.	.	.	4B-\	.	.	.	4bb-\	.	4ddd\)	.
=38	=38	=38	=38	=38	=38	=38	=38	=38	=38	=38	=38	=38	=38	=38	=38	=38	=38	=38	=38	=38	=38	=38	=38
(2B-\	.	2f\	.	2b-\	.	(2dd\	.	1ryy	1ryy	1ryy	2dd\	Mat-	.	1ryy	1ryy	2B-\	.	1ryy	1ryy	2bb-\	.	2ddd\	.
4F\)	.	4f\	.	4a\	.	4cc\)	.	.	.	.	4cc\	-ka	.	.	.	4F\	.	.	.	4aa\	.	4ccc\	.
4r	.	4r	.	4r	.	4r	.	.	.	.	4r	.	.	.	.	4r	.	.	.	4r	.	4r	.
=39	=39	=39	=39	=39	=39	=39	=39	=39	=39	=39	=39	=39	=39	=39	=39	=39	=39	=39	=39	=39	=39	=39	=39
!	!	!LO:TX:b:i:t=Dolce	!	!LO:TX:a:i:t=dolce	!	!LO:TX:b:i:t=Dolce	!LO:DY:a	!	!	!	!LO:TX:a:i:t=dolce	!	!	!	!	!	!	!	!	!LO:TX:a:t=10	!	!LO:TX:a:t=10.	!
4r	.	2c/	.	2a/	p	2cc\	p	1ryy	1ryy	1ryy	2cc\	I	.	1ryy	1ryy	4r	.	1ryy	1ryy	00r	.	00r	.
!	!	!	!	!	!	!	!	!	!	!	!	!	!	!	!	!	!LO:DY:t=p&colon;	!	!	!	!	!	!
4F\	p	.	.	.	.	.	.	.	.	.	.	.	.	.	.	4F\	p	.	.	.	.	.	.
4A\	.	(8d/L	.	(8b-/L	.	(8dd\L	.	.	.	.	8dd\L	.	.	.	.	4A\	.	.	.	.	.	.	.
.	.	8c/	.	8a/	.	8cc\	.	.	.	.	8cc\J	.	.	.	.	.	.	.	.	.	.	.	.
4F\	.	8B-/	.	8g/	.	8b-\	.	.	.	.	8b-\L	.	.	.	.	4F\	.	.	.	.	.	.	.
.	.	8A/J)	.	8f/J)	.	8a\J)	.	.	.	.	8a\J	.	.	.	.	.	.	.	.	.	.	.	.
=40	=40	=40	=40	=40	=40	=40	=40	=40	=40	=40	=40	=40	=40	=40	=40	=40	=40	=40	=40	=40	=40	=40	=40
.	.	.	.	.	.	.	.	.	.	.	8qqcc/	.	.	.	.	.	.	.	.	.	.	.	.
4r	.	2B-/	.	2g/	.	2b-\	.	1ryy	1ryy	1ryy	2b-\	stra-	.	1ryy	1ryy	4r	.	1ryy	1ryy	.	.	.	.
4G\	.	.	.	.	.	.	.	.	.	.	.	.	.	.	.	4G\	.	.	.	.	.	.	.
!LO:SIC:v:o=4E-\	!	!	!	!	!	!	!	!	!	!	!	!	!	!	!	!	!	!	!	!	!	!	!
4En\	.	(8c/L	.	(8a/L	.	(8cc\L	.	.	.	.	8cc\L	-pio-	.	.	.	4E-\	.	.	.	.	.	.	.
.	.	8B-/	.	8g/	.	8b-\	.	.	.	.	8b-\J	.	.	.	.	.	.	.	.	.	.	.	.
!	!	!	!	!	!	!	!	!	!	!	!LO:LB:g=original	!	!	!	!	!	!	!	!	!	!	!	!
4C\	.	8A/	.	8f/	.	8a\	.	.	.	.	8a\L	-na	.	.	.	4C\	.	.	.	.	.	.	.
!	!	!	!	!LO:SIC:v:o=8e-/J)	!	!	!	!	!	!	!	!	!	!	!	!	!	!	!	!	!	!	!
.	.	8G/J)	.	8en/J)	.	8g\J)	.	.	.	.	8g\J	.	.	.	.	.	.	.	.	.	.	.	.
!LO:LB:g=original	!	!	!	!	!	!	!	!	!	!	!	!	!	!	!	!	!	!	!	!	!	!	!
=41	=41	=41	=41	=41	=41	=41	=41	=41	=41	=41	=41	=41	=41	=41	=41	=41	=41	=41	=41	=41	=41	=41	=41
.	.	.	.	16qqf/	.	16qqa/	.	.	.	.	.	.	.	.	.	.	.	.	.	.	.	.	.
4F\	.	4.f\	.	4.a/	.	4.ff\	.	1ryy	1ryy	1ryy	4.ff\	Mat-	.	1ryy	1ryy	4F\	.	1ryy	1ryy	.	.	.	.
4FF/	.	.	.	.	.	.	.	.	.	.	.	.	.	.	.	4FF/	.	.	.	.	.	.	.
.	.	8en\	.	8g/	.	8een\	.	.	.	.	8een\	-ka	.	.	.	.	.	.	.	.	.	.	.
4r	.	(8d\L	.	(8b-/L	.	(8dd\L	.	.	.	.	(8dd\L	Bło-	.	.	.	4r	.	.	.	.	.	.	.
.	.	8c\	.	8a/	.	8cc\	.	.	.	.	8cc\	.	.	.	.	.	.	.	.	.	.	.	.
4BB-/	.	8B-\	.	8g/	.	8b-\	.	.	.	.	8b-\)	.	.	.	.	4BB-/	.	.	.	.	.	.	.
.	.	8A\J)	.	8f/J)	.	8a\J)	.	.	.	.	[8a\J	-go-	.	.	.	.	.	.	.	.	.	.	.
=42	=42	=42	=42	=42	=42	=42	=42	=42	=42	=42	=42	=42	=42	=42	=42	=42	=42	=42	=42	=42	=42	=42	=42
2C/	.	(2A/	.	2f/	.	(2a/	.	1ryy	1ryy	1ryy	2a\]	.	.	1ryy	1ryy	2C/	.	1ryy	1ryy	.	.	.	.
!	!	!	!	!LO:SIC:v:o=4e-/	!	!	!	!	!	!	!	!	!	!	!	!	!	!	!	!	!	!	!
4CC/	.	4G/)	.	4en/	.	4g/)	.	.	.	.	4b-\	-sła-	.	.	.	4CC/	.	.	.	.	.	.	.
!	!	!	!	!	!	!	!	!	!	!	!LO:SIC:v:o=4dd\	!	!	!	!	!	!	!	!	!	!	!	!
4r	.	4r	.	4r	.	4cc/	.	.	.	.	4cc\	-wio-	.	.	.	4r	.	.	.	.	.	.	.
!	!	!	!	!	!	!LO:LB:g=original	!	!	!	!	!	!	!	!	!	!	!	!	!	!	!	!	!
=43	=43	=43	=43	=43	=43	=43	=43	=43	=43	=43	=43	=43	=43	=43	=43	=43	=43	=43	=43	=43	=43	=43	=43
!	!	!	!	!	!	!	!	!	!	!	!	!	!	!	!	!LO:TX:b:i:t=Stocatto	!	!	!	!	!	!	!
4B-\	.	4B-/	.	4f/	.	4dd\	.	1ryy	1ryy	1ryy	4dd\	-na	.	1ryy	1ryy	4B-|\	.	1ryy	1ryy	00r	.	00r	.
4B-\	.	4B-/	.	4f/	.	4dd\	.	.	.	.	16dd\LL	kto-	.	.	.	4B-|\	.	.	.	.	.	.	.
.	.	.	.	.	.	.	.	.	.	.	16cc\	.	.	.	.	.	.	.	.	.	.	.	.
.	.	.	.	.	.	.	.	.	.	.	16dd\	.	.	.	.	.	.	.	.	.	.	.	.
.	.	.	.	.	.	.	.	.	.	.	16ee-X\JJ	.	.	.	.	.	.	.	.	.	.	.	.
4B-\	.	4B-/	.	4f/	.	4dd\	.	.	.	.	4dd\	.	.	.	.	4B-|\	.	.	.	.	.	.	.
4B-\	.	4B-/	.	4f/	.	4dd\	.	.	.	.	8r	.	.	.	.	4B-|\	.	.	.	.	.	.	.
.	.	.	.	.	.	.	.	.	.	.	(16gg\LL	.	.	.	.	.	.	.	.	.	.	.	.
.	.	.	.	.	.	.	.	.	.	.	16aa\JJ)	.	.	.	.	.	.	.	.	.	.	.	.
!	!	!	!	!LO:LB:g=original	!	!	!	!	!	!	!	!	!	!	!	!	!	!	!	!	!	!	!
=44	=44	=44	=44	=44	=44	=44	=44	=44	=44	=44	=44	=44	=44	=44	=44	=44	=44	=44	=44	=44	=44	=44	=44
4B-\	.	4B-/	.	4g/	.	4dd\	.	1ryy	1ryy	1ryy	8bb-\	.	.	1ryy	1ryy	4B-|\	.	1ryy	1ryy	.	.	.	.
.	.	.	.	.	.	.	.	.	.	.	8aa\	.	.	.	.	.	.	.	.	.	.	.	.
4B-\	.	4B-/	.	4g/	.	4dd\	.	.	.	.	8gg\L	.	.	.	.	4B-|\	.	.	.	.	.	.	.
.	.	.	.	.	.	.	.	.	.	.	8ff\J	.	.	.	.	.	.	.	.	.	.	.	.
!	!	!	!	!	!	!	!	!	!	!	!LO:TUP:a:problem:klamra łukowa	!	!	!	!	!	!	!	!	!	!	!	!
4B-\	.	4B-/	.	4g/	.	4dd\	.	.	.	.	24een\LL	.	.	.	.	4B-|\	.	.	.	.	.	.	.
.	.	.	.	.	.	.	.	.	.	.	24ff\	.	.	.	.	.	.	.	.	.	.	.	.
.	.	.	.	.	.	.	.	.	.	.	24ee\JJ	.	.	.	.	.	.	.	.	.	.	.	.
!	!	!	!	!	!	!	!	!	!	!	!LO:TUP:a:problem:klamra łukowa	!	!	!	!	!	!	!	!	!	!	!	!
.	.	.	.	.	.	.	.	.	.	.	24dd\LL	.	.	.	.	.	.	.	.	.	.	.	.
.	.	.	.	.	.	.	.	.	.	.	24ee\	.	.	.	.	.	.	.	.	.	.	.	.
.	.	.	.	.	.	.	.	.	.	.	24dd\JJ	.	.	.	.	.	.	.	.	.	.	.	.
!	!	!	!	!	!	!	!	!	!	!	!LO:TUP:a:problem:klamra łukowa	!	!	!	!	!	!	!	!	!	!	!	!
4B-\	.	4B-/	.	4g/	.	4dd\	.	.	.	.	24cc\LL	.	.	.	.	4B-|\	.	.	.	.	.	.	.
.	.	.	.	.	.	.	.	.	.	.	24dd\	.	.	.	.	.	.	.	.	.	.	.	.
.	.	.	.	.	.	.	.	.	.	.	24cc\JJ	.	.	.	.	.	.	.	.	.	.	.	.
!	!	!	!	!	!	!	!	!	!	!	!LO:TX:b:i:t=Volti Citto:rj	!	!	!	!	!	!	!	!	!	!	!	!
.	.	.	.	.	.	.	.	.	.	.	8bn\	.	.	.	.	.	.	.	.	.	.	.	.
!	!	!	!	!	!	!	!	!	!	!	!LO:PB:g=original	!	!	!	!	!	!	!	!	!	!	!	!
=45	=45	=45	=45	=45	=45	=45	=45	=45	=45	=45	=45	=45	=45	=45	=45	=45	=45	=45	=45	=45	=45	=45	=45
!	!	!	!	!LO:TX:t=P:problem:brak taktu nr 45	!	!	!	!	!	!	!	!	!	!	!	!	!	!	!	!	!	!	!
4A\	.	4A/	.	1ryy	.	4cc\	.	1ryy	1ryy	1ryy	4cc\	.	.	1ryy	1ryy	4A|\	.	1ryy	1ryy	.	.	.	.
!	!	!	!	!	!	!LO:TX:a:i:t=bis	!	!	!	!	!	!	!	!	!	!	!	!	!	!	!	!	!
4A\	.	4A/	.	.	.	4cc\	.	.	.	.	(16cc\LL	.	.	.	.	4A|\	.	.	.	.	.	.	.
.	.	.	.	.	.	.	.	.	.	.	16bn\	.	.	.	.	.	.	.	.	.	.	.	.
.	.	.	.	.	.	.	.	.	.	.	16cc\	.	.	.	.	.	.	.	.	.	.	.	.
.	.	.	.	.	.	.	.	.	.	.	16dd\JJ)	.	.	.	.	.	.	.	.	.	.	.	.
4A\	.	4A/	.	.	.	4cc\	.	.	.	.	4cc\	.	.	.	.	4A|\	.	.	.	.	.	.	.
4A\	.	4A/	.	.	.	4cc\	.	.	.	.	8r	.	.	.	.	4A|\	.	.	.	.	.	.	.
.	.	.	.	.	.	.	.	.	.	.	16ff\LL	.	.	.	.	.	.	.	.	.	.	.	.
.	.	.	.	.	.	.	.	.	.	.	16gg\JJ	.	.	.	.	.	.	.	.	.	.	.	.
!	!	!LO:LB:g=original	!	!	!	!	!	!	!	!	!	!	!	!	!	!	!	!	!	!	!	!	!
=46	=46	=46	=46	=46	=46	=46	=46	=46	=46	=46	=46	=46	=46	=46	=46	=46	=46	=46	=46	=46	=46	=46	=46
!	!	!	!	!	!	!LO:TX:t=P:problem:fragment oznaczony znakiem repetycji	!	!	!	!	!	!	!	!	!	!	!	!	!	!	!	!	!
4A\	.	4A/	.	4f/	.	4cc\yy	.	1ryy	1ryy	1ryy	8aa\L	.	.	1ryy	1ryy	4A|\	.	1ryy	1ryy	.	.	.	.
.	.	.	.	.	.	.	.	.	.	.	8gg\	.	.	.	.	.	.	.	.	.	.	.	.
4A\	.	4A/	.	4f/	.	4cc\yy	.	.	.	.	8ff\	.	.	.	.	4A|\	.	.	.	.	.	.	.
.	.	.	.	.	.	.	.	.	.	.	8een\J	.	.	.	.	.	.	.	.	.	.	.	.
!	!	!	!	!	!	!	!	!	!	!	!LO:TUP:a:problem:klamra łukowa	!	!	!	!	!	!	!	!	!	!	!	!
4A\	.	4A/	.	4f/	.	4cc\yy	.	.	.	.	24dd\LL	.	.	.	.	4A|\	.	.	.	.	.	.	.
.	.	.	.	.	.	.	.	.	.	.	24ee\	.	.	.	.	.	.	.	.	.	.	.	.
.	.	.	.	.	.	.	.	.	.	.	24dd\JJ	.	.	.	.	.	.	.	.	.	.	.	.
!	!	!	!	!	!	!	!	!	!	!	!LO:TUP:a:problem:klamra łukowa	!	!	!	!	!	!	!	!	!	!	!	!
.	.	.	.	.	.	.	.	.	.	.	24cc\LL	.	.	.	.	.	.	.	.	.	.	.	.
.	.	.	.	.	.	.	.	.	.	.	24dd\	.	.	.	.	.	.	.	.	.	.	.	.
.	.	.	.	.	.	.	.	.	.	.	24cc\JJ	.	.	.	.	.	.	.	.	.	.	.	.
!	!	!	!	!	!	!	!	!	!	!	!LO:TUP:a:problem:klamra łukowa	!	!	!	!	!	!	!	!	!	!	!	!
4A\	.	4A/	.	4f/	.	4cc\yy	.	.	.	.	24b-\LL	.	.	.	.	4A|\	.	.	.	.	.	.	.
.	.	.	.	.	.	.	.	.	.	.	24cc\	.	.	.	.	.	.	.	.	.	.	.	.
.	.	.	.	.	.	.	.	.	.	.	24b-\JJ	.	.	.	.	.	.	.	.	.	.	.	.
.	.	.	.	.	.	.	.	.	.	.	8a\	.	.	.	.	.	.	.	.	.	.	.	.
=47	=47	=47	=47	=47	=47	=47	=47	=47	=47	=47	=47	=47	=47	=47	=47	=47	=47	=47	=47	=47	=47	=47	=47
4G\	.	4G/	.	4f/	.	4b-\	.	1ryy	1ryy	1ryy	4b-X\	.	.	1ryy	1ryy	4G|\	.	1ryy	1ryy	0r	.	0r	.
4G\	.	4G/	.	4f/	.	4b-\	.	.	.	.	(16b-\LL	.	.	.	.	4G|\	.	.	.	.	.	.	.
.	.	.	.	.	.	.	.	.	.	.	16a\	.	.	.	.	.	.	.	.	.	.	.	.
.	.	.	.	.	.	.	.	.	.	.	16b-\	.	.	.	.	.	.	.	.	.	.	.	.
.	.	.	.	.	.	.	.	.	.	.	16cc\JJ)	.	.	.	.	.	.	.	.	.	.	.	.
4G\	.	4G/	.	4f/	.	4b-\	.	.	.	.	4b-\	.	.	.	.	4G|\	.	.	.	.	.	.	.
4G\	.	4G/	.	4f/	.	4b-\	.	.	.	.	8r	.	.	.	.	4G|\	.	.	.	.	.	.	.
.	.	.	.	.	.	.	.	.	.	.	16een\LL	.	.	.	.	.	.	.	.	.	.	.	.
.	.	.	.	.	.	.	.	.	.	.	16ff\JJ	.	.	.	.	.	.	.	.	.	.	.	.
=48	=48	=48	=48	=48	=48	=48	=48	=48	=48	=48	=48	=48	=48	=48	=48	=48	=48	=48	=48	=48	=48	=48	=48
4C/	.	4g\	.	4en/	.	4b-\	.	1ryy	1ryy	1ryy	8gg\L	.	.	1ryy	1ryy	4C|/	.	1ryy	1ryy	.	.	.	.
.	.	.	.	.	.	.	.	.	.	.	8ff\	.	.	.	.	.	.	.	.	.	.	.	.
!	!	!	!	!	!	!	!	!	!	!	!LO:SIC:v:o=8ee-\	!	!	!	!	!	!	!	!	!	!	!	!
4C/	.	4g\	.	4e/	.	4b-\	.	.	.	.	8een\	.	.	.	.	4C|/	.	.	.	.	.	.	.
.	.	.	.	.	.	.	.	.	.	.	8dd\J	.	.	.	.	.	.	.	.	.	.	.	.
!	!	!	!	!	!	!	!	!	!	!	!LO:TUP:a:problem:klamra łukowa	!	!	!	!	!	!	!	!	!	!	!	!
4C/	.	4g\	.	4e/	.	4b-\	.	.	.	.	24cc\LL	.	.	.	.	4C|/	.	.	.	.	.	.	.
.	.	.	.	.	.	.	.	.	.	.	24dd\	.	.	.	.	.	.	.	.	.	.	.	.
.	.	.	.	.	.	.	.	.	.	.	24cc\JJ	.	.	.	.	.	.	.	.	.	.	.	.
!	!	!	!	!	!	!	!	!	!	!	!LO:TUP:a:problem:klamra łukowa	!	!	!	!	!	!	!	!	!	!	!	!
.	.	.	.	.	.	.	.	.	.	.	24b-\LL	.	.	.	.	.	.	.	.	.	.	.	.
.	.	.	.	.	.	.	.	.	.	.	24cc\	.	.	.	.	.	.	.	.	.	.	.	.
.	.	.	.	.	.	.	.	.	.	.	24b-\JJ	.	.	.	.	.	.	.	.	.	.	.	.
!	!	!	!	!	!	!	!	!	!	!	!LO:TUP:a:problem:klamra łukowa	!	!	!	!	!	!	!	!	!	!	!	!
4C/	.	4g\	.	4e/	.	4b-\	.	.	.	.	24a\LL	.	.	.	.	4C|/	.	.	.	.	.	.	.
.	.	.	.	.	.	.	.	.	.	.	24b-\	.	.	.	.	.	.	.	.	.	.	.	.
.	.	.	.	.	.	.	.	.	.	.	24a\JJ	.	.	.	.	.	.	.	.	.	.	.	.
.	.	.	.	.	.	.	.	.	.	.	8g\	.	.	.	.	.	.	.	.	.	.	.	.
!	!	!	!	!	!	!	!	!	!	!	!LO:LB:g=original	!	!	!	!	!LO:LB:g=original	!	!	!	!	!	!	!
=49	=49	=49	=49	=49	=49	=49	=49	=49	=49	=49	=49	=49	=49	=49	=49	=49	=49	=49	=49	=49	=49	=49	=49
!	!	!	!	!	!	!	!	!	!	!	!	!	!	!	!	!	!	!	!	!	!	!	!LO:DY:t=p.
4c\	.	4f\	.	4a/	.	(8a\L	.	1ryy	1ryy	1ryy	8ff\L	.	.	1ryy	1ryy	4c|\	.	1ryy	1ryy	2ff\	p	2aa\	p
.	.	.	.	.	.	8cc\J)	.	.	.	.	8cc\J	.	.	.	.	.	.	.	.	.	.	.	.
4c\	.	4f\	.	4a/	.	4.cc\	.	.	.	.	4.cc\	-ra	.	.	.	4c|\	.	.	.	.	.	.	.
!	!	!	!	!	!	!	!	!	!	!	!	!	!	!	!	!	!	!	!	!LO:SIC:v:o=2ee-\	!	!	!
4c\	.	4g\	.	4b-/	.	.	.	.	.	.	.	.	.	.	.	4c|\	.	.	.	2een\	.	2bb-\	.
.	.	.	.	.	.	(8gg\L	.	.	.	.	(8gg\L	.	.	.	.	.	.	.	.	.	.	.	.
4c\	.	4g\	.	4b-/	.	8bb-\	.	.	.	.	8bb-\J)	.	.	.	.	4c|\	.	.	.	.	.	.	.
.	.	.	.	.	.	8een\J)	.	.	.	.	8een\	pła-	.	.	.	.	.	.	.	.	.	.	.
=50	=50	=50	=50	=50	=50	=50	=50	=50	=50	=50	=50	=50	=50	=50	=50	=50	=50	=50	=50	=50	=50	=50	=50
4c\	.	4f\	.	4a/	.	8ff\L	.	1ryy	1ryy	1ryy	8ff\L	-ka-	.	1ryy	1ryy	4c|\	.	1ryy	1ryy	2ff\	.	2aa\	.
.	.	.	.	.	.	8cc\J	.	.	.	.	8cc\J	.	.	.	.	.	.	.	.	.	.	.	.
4c\	.	4f\	.	4a/	.	4.cc\	.	.	.	.	4.cc\	-ła	.	.	.	4c|\	.	.	.	.	.	.	.
!	!	!	!	!	!	!	!	!	!	!	!	!	!	!	!	!	!	!	!	!LO:SIC:v:o=2ee-\	!	!	!
4c\	.	4g\	.	4b-/	.	.	.	.	.	.	.	.	.	.	.	4c|\	.	.	.	2een\	.	2bb-\	.
.	.	.	.	.	.	8gg\L	.	.	.	.	(8gg\L	.	.	.	.	.	.	.	.	.	.	.	.
4c\	.	4g\	.	4b-/	.	8bb-\	.	.	.	.	8bb-\J)	.	.	.	.	4c|\	.	.	.	.	.	.	.
!	!	!	!	!	!	!	!	!	!	!	!LO:SIC:v:o=8ee-\	!	!	!	!	!	!	!	!	!	!	!	!
.	.	.	.	.	.	8een\J	.	.	.	.	8een\	i	.	.	.	.	.	.	.	.	.	.	.
=51	=51	=51	=51	=51	=51	=51	=51	=51	=51	=51	=51	=51	=51	=51	=51	=51	=51	=51	=51	=51	=51	=51	=51
!	!	!	!	!	!	!	!	!	!	!	!	!	!	!	!	!LO:TX:t=P:problem:fragment oznaczony znakiem repetycji	!	!	!	!	!	!	!
4c\	.	4f\	.	4a/	.	(8ff\L	.	1ryy	1ryy	1ryy	8ff\L	łka-	.	1ryy	1ryy	4c|\yy	.	1ryy	1ryy	2ff\	.	2aa\	.
.	.	.	.	.	.	8cc\J)	.	.	.	.	8cc\J	.	.	.	.	.	.	.	.	.	.	.	.
4c\	.	4f\	.	4a/	.	4.cc\	.	.	.	.	4.cc\	-ła	.	.	.	4c|\yy	.	.	.	.	.	.	.
!	!	!	!	!	!	!	!	!	!	!	!	!	!	!	!	!	!	!	!	!LO:SIC:v:o=2ee-\	!	!	!
4c\	.	4g\	.	4b-/	.	.	.	.	.	.	.	.	.	.	.	4c|\yy	.	.	.	2een\	.	2bb-\	.
.	.	.	.	.	.	8gg\L	.	.	.	.	(8gg\L	.	.	.	.	.	.	.	.	.	.	.	.
4c\	.	4g\	.	4b-/	.	8bb-\	.	.	.	.	8bb-\J)	.	.	.	.	4c|\yy	.	.	.	.	.	.	.
!	!	!	!	!	!	!LO:SIC:v:o=8ee-\J	!	!	!	!	!LO:SIC:v:o=8ee-\	!	!	!	!	!	!	!	!	!	!	!	!
.	.	.	.	.	.	8een\J	.	.	.	.	8een\	.	.	.	.	.	.	.	.	.	.	.	.
!LO:LB:g=original	!	!	!	!	!	!	!	!	!	!	!	!	!	!	!	!	!	!	!	!	!	!	!
=52	=52	=52	=52	=52	=52	=52	=52	=52	=52	=52	=52	=52	=52	=52	=52	=52	=52	=52	=52	=52	=52	=52	=52
8r	.	2c\	.	2a/	.	2ff\	.	1ryy	1ryy	1ryy	2ff\	z_Ƶa-	.	1ryy	1ryy	8r	.	1ryy	1ryy	2ff\	.	2aa\	.
!	!	!	!	!	!	!	!	!	!	!	!	!	!	!	!	!	!LO:DY:t=p.	!	!	!	!	!	!
8F\L	p	.	.	.	.	.	.	.	.	.	.	.	.	.	.	8F|\L	p	.	.	.	.	.	.
8A\	.	.	.	.	.	.	.	.	.	.	.	.	.	.	.	8A|\	.	.	.	.	.	.	.
8F\J	.	.	.	.	.	.	.	.	.	.	.	.	.	.	.	8F|\J	.	.	.	.	.	.	.
!LO:TX:t=P:problem:mixed beam	!	!	!	!	!	!	!	!	!	!	!LO:SIC:v:o=2ee-\	!	!	!	!	!LO:TX:t=P:problem:mixed beam	!	!	!	!	!	!	!
8c\L	.	2c\	.	2g/	.	2een\	.	.	.	.	2een\	-lem	.	.	.	8c|\L	.	.	.	2r	.	2r	.
8C/	.	.	.	.	.	.	.	.	.	.	.	.	.	.	.	8C|/	.	.	.	.	.	.	.
!LO:SIC:v:o=8E-/	!	!	!	!	!	!	!	!	!	!	!	!	!	!	!	!LO:SIC:v:o=8E-|/	!	!	!	!	!	!	!
8En/	.	.	.	.	.	.	.	.	.	.	.	.	.	.	.	8En|/	.	.	.	.	.	.	.
8C/J	.	.	.	.	.	.	.	.	.	.	.	.	.	.	.	8C|/J	.	.	.	.	.	.	.
=53	=53	=53	=53	=53	=53	=53	=53	=53	=53	=53	=53	=53	=53	=53	=53	=53	=53	=53	=53	=53	=53	=53	=53
!	!	!	!	!	!	!	!	!	!	!	!	!	!	!	!	!	!	!	!	!LO:TX:a:t=4	!	!LO:TX:a:t=4	!
8r	.	2d\	.	2f/	.	2dd\	.	1ryy	1ryy	1ryy	2dd\	Sy-	.	1ryy	1ryy	8r	.	1ryy	1ryy	00r	.	00r	.
8D'\L	.	.	.	.	.	.	.	.	.	.	.	.	.	.	.	8D|\L	.	.	.	.	.	.	.
8F'\	.	.	.	.	.	.	.	.	.	.	.	.	.	.	.	8F|\	.	.	.	.	.	.	.
8D'\J	.	.	.	.	.	.	.	.	.	.	.	.	.	.	.	8D|\J	.	.	.	.	.	.	.
!LO:TX:t=P:problem:mixed beam	!	!	!	!LO:SIC:v:o=2e-/	!	!LO:SIC:v:o=2dd\	!	!	!	!	!	!	!	!	!	!LO:TX:t=P:problem:mixed beam	!	!	!	!	!	!	!
8A'\L	.	2A/	.	2en/	.	2cc\	.	.	.	.	2cc\	-na	.	.	.	8A|\L	.	.	.	.	.	.	.
8AA'/	.	.	.	.	.	.	.	.	.	.	.	.	.	.	.	8AA|/	.	.	.	.	.	.	.
8C'/	.	.	.	.	.	.	.	.	.	.	.	.	.	.	.	8C|/	.	.	.	.	.	.	.
8AA'/J	.	.	.	.	.	.	.	.	.	.	.	.	.	.	.	8AA|/J	.	.	.	.	.	.	.
!	!	!	!	!	!	!LO:LB:g=original	!	!	!	!	!	!	!	!	!	!	!	!	!	!	!	!	!
=54	=54	=54	=54	=54	=54	=54	=54	=54	=54	=54	=54	=54	=54	=54	=54	=54	=54	=54	=54	=54	=54	=54	=54
8r	.	2B-/	.	2d/	.	2b-\	.	1ryy	1ryy	1ryy	2b-\	Je-	.	1ryy	1ryy	8r	.	1ryy	1ryy	.	.	.	.
8BB-/L	.	.	.	.	.	.	.	.	.	.	.	.	.	.	.	8BB-|/L	.	.	.	.	.	.	.
8D/	.	.	.	.	.	.	.	.	.	.	.	.	.	.	.	8D|/	.	.	.	.	.	.	.
8BB-/J	.	.	.	.	.	.	.	.	.	.	.	.	.	.	.	8BB-|/J	.	.	.	.	.	.	.
!LO:TX:t=P:problem:mixed beam	!	!LO:SIC:v:o=2f#X\	!	!	!	!	!	!	!	!	!	!	!	!	!	!LO:TX:t=P:problem:mixed beam	!	!	!	!	!	!	!
8F\L	.	2f\	.	2c/	.	2a\	.	.	.	.	2a\	-dno-	.	.	.	8F|\L	.	.	.	.	.	.	.
8FF/	.	.	.	.	.	.	.	.	.	.	.	.	.	.	.	8FF|/	.	.	.	.	.	.	.
8AA/	.	.	.	.	.	.	.	.	.	.	.	.	.	.	.	8AA|/	.	.	.	.	.	.	.
8FF/J	.	.	.	.	.	.	.	.	.	.	.	.	.	.	.	8FF|/J	.	.	.	.	.	.	.
!	!	!	!	!	!	!	!	!	!	!	!LO:LB:g=original	!	!	!	!	!	!	!	!	!	!	!	!
=55	=55	=55	=55	=55	=55	=55	=55	=55	=55	=55	=55	=55	=55	=55	=55	=55	=55	=55	=55	=55	=55	=55	=55
!	!	!	!	!	!	!LO:TX:t=P:problem:mixed beam	!	!	!	!	!	!	!	!	!	!	!	!	!	!	!	!	!
4BB-/	.	4g\	.	2B-/	.	8g/L	.	1ryy	1ryy	1ryy	8g\L	-ro-	.	1ryy	1ryy	4BB-|/	.	1ryy	1ryy	.	.	.	.
.	.	.	.	.	.	8dd\J	.	.	.	.	8dd\J	.	.	.	.	.	.	.	.	.	.	.	.
4GG/	.	4B-/	.	.	.	16cc\LL	.	.	.	.	16cc\LL	.	.	.	.	4GG|/	.	.	.	.	.	.	.
.	.	.	.	.	.	16b-\	.	.	.	.	16b-\	.	.	.	.	.	.	.	.	.	.	.	.
.	.	.	.	.	.	16a\	.	.	.	.	16a\	.	.	.	.	.	.	.	.	.	.	.	.
.	.	.	.	.	.	16g\JJ	.	.	.	.	16g\JJ	.	.	.	.	.	.	.	.	.	.	.	.
4C/	.	4c/	.	4A/	.	4f/	.	.	.	.	4f/	-dzo-	.	.	.	4C|/	.	.	.	.	.	.	.
!	!	!	!	!	!	!LO:SIC:v:o=(8e-/L	!	!	!	!	!	!	!	!	!	!	!	!	!	!	!	!	!
4c\	.	4c/	.	8G/L	.	(8en/L	.	.	.	.	8en/L	-ne-	.	.	.	4c\	.	.	.	.	.	.	.
.	.	.	.	8B-/J	.	8g/J)	.	.	.	.	8g/J	.	.	.	.	.	.	.	.	.	.	.	.
=56	=56	=56	=56	=56	=56	=56	=56	=56	=56	=56	=56	=56	=56	=56	=56	=56	=56	=56	=56	=56	=56	=56	=56
(2c\	.	2c/	.	2B-/	.	(2g/	.	1ryy	1ryy	1ryy	(2g/	.	.	1ryy	1ryy	(2c\	.	1ryy	1ryy	.	.	.	.
4F\)	.	4c/	.	4A/	.	4f/)	.	.	.	.	4f/)	-go	.	.	.	4F\)	.	.	.	.	.	.	.
4r	.	4r	.	4r	.	4cc\	.	.	.	.	4r	.	.	.	.	4r	.	.	.	.	.	.	.
!	!	!	!	!LO:LB:g=original	!	!	!	!	!	!	!	!	!	!	!	!	!	!	!	!LO:LB:g=original	!	!	!
=57	=57	=57	=57	=57	=57	=57	=57	=57	=57	=57	=57	=57	=57	=57	=57	=57	=57	=57	=57	=57	=57	=57	=57
!	!LO:DY:t=for.	!	!LO:DY:t=f&colon;	!	!	!	!LO:DY:t=f.:rj	!	!	!	!LO:TX:a:t=15	!	!	!	!	!	!LO:DY:t=f&colon;	!	!	!LO:SIC:v:o=(2ee-\	!LO:DY:t=f&colon;	!	!
2C/	f	2g\	f	2b-\	f	(8dd\L	f	1ryy	1ryy	1ryy	00r	.	.	1ryy	1ryy	2C/	f	1ryy	1ryy	(2een\	f	(2bb-X\	.
.	.	.	.	.	.	8cc\)	.	.	.	.	.	.	.	.	.	.	.	.	.	.	.	.	.
.	.	.	.	.	.	8cc'\	.	.	.	.	.	.	.	.	.	.	.	.	.	.	.	.	.
.	.	.	.	.	.	8cc'\J	.	.	.	.	.	.	.	.	.	.	.	.	.	.	.	.	.
!	!	!	!	!LO:N:vis=4	!	!	!	!	!	!	!	!	!	!	!	!	!	!	!	!	!	!	!
2r	.	2fn\	.	2a\	.	(8ff\L	.	.	.	.	.	.	.	.	.	2r	.	.	.	2ff\	.	2aa\	.
.	.	.	.	.	.	8cc\)	.	.	.	.	.	.	.	.	.	.	.	.	.	.	.	.	.
.	.	.	.	.	.	8cc'\	.	.	.	.	.	.	.	.	.	.	.	.	.	.	.	.	.
.	.	.	.	.	.	8cc'\J	.	.	.	.	.	.	.	.	.	.	.	.	.	.	.	.	.
!	!	!LO:LB:g=original	!	!	!	!	!	!	!	!	!	!	!	!	!	!	!	!	!	!	!	!	!
=58	=58	=58	=58	=58	=58	=58	=58	=58	=58	=58	=58	=58	=58	=58	=58	=58	=58	=58	=58	=58	=58	=58	=58
2C/	.	2en\	.	2g/	.	(8bb-\L	.	1ryy	1ryy	1ryy	.	.	.	1ryy	1ryy	2C/	.	1ryy	1ryy	2cc\	.	2gg\	.
.	.	.	.	.	.	8cc\)	.	.	.	.	.	.	.	.	.	.	.	.	.	.	.	.	.
.	.	.	.	.	.	8cc'\	.	.	.	.	.	.	.	.	.	.	.	.	.	.	.	.	.
.	.	.	.	.	.	8cc'\J	.	.	.	.	.	.	.	.	.	.	.	.	.	.	.	.	.
2r	.	2f\	.	2a/	.	(8aa\L	.	.	.	.	.	.	.	.	.	2r	.	.	.	2ff\)	.	2aa\)	.
.	.	.	.	.	.	8cc\)	.	.	.	.	.	.	.	.	.	.	.	.	.	.	.	.	.
.	.	.	.	.	.	8cc'\	.	.	.	.	.	.	.	.	.	.	.	.	.	.	.	.	.
.	.	.	.	.	.	8cc'\J	.	.	.	.	.	.	.	.	.	.	.	.	.	.	.	.	.
=59	=59	=59	=59	=59	=59	=59	=59	=59	=59	=59	=59	=59	=59	=59	=59	=59	=59	=59	=59	=59	=59	=59	=59
!	!	!	!	!	!	!LO:SIC:v:o=(8ee-\L	!LO:DY:a	!	!	!	!	!	!	!	!	!	!LO:DY:t=p&colon;	!	!	!LO:SIC:v:o=(2ee-\	!LO:DY:t=p&colon;	!	!LO:DY:t=p&colon;
2C/	p	2g\	.	2b-/	.	(8dd\L	p	1ryy	1ryy	1ryy	.	.	.	1ryy	1ryy	2C/	p	1ryy	1ryy	(2een\	p	2bb-\	p
.	.	.	.	.	.	8cc\)	.	.	.	.	.	.	.	.	.	.	.	.	.	.	.	.	.
.	.	.	.	.	.	8cc'\	.	.	.	.	.	.	.	.	.	.	.	.	.	.	.	.	.
.	.	.	.	.	.	8cc'\J	.	.	.	.	.	.	.	.	.	.	.	.	.	.	.	.	.
2r	.	2f\	.	2a/	.	(8ff\L	.	.	.	.	.	.	.	.	.	2r	.	.	.	2ff\	.	2aa\	.
.	.	.	.	.	.	8cc\)	.	.	.	.	.	.	.	.	.	.	.	.	.	.	.	.	.
.	.	.	.	.	.	8cc'\	.	.	.	.	.	.	.	.	.	.	.	.	.	.	.	.	.
.	.	.	.	.	.	8cc'\J	.	.	.	.	.	.	.	.	.	.	.	.	.	.	.	.	.
!	!	!	!	!	!	!	!	!	!	!	!	!	!	!	!	!LO:LB:g=original	!	!	!	!	!	!	!
=60	=60	=60	=60	=60	=60	=60	=60	=60	=60	=60	=60	=60	=60	=60	=60	=60	=60	=60	=60	=60	=60	=60	=60
!	!	!LO:SIC:v:o=2e-\	!	!	!	!	!	!	!	!	!	!	!	!	!	!	!	!	!	!	!	!	!
2C/	.	2en\	.	2g/	.	(8bb-\L	.	1ryy	1ryy	1ryy	.	.	.	1ryy	1ryy	2C/	.	1ryy	1ryy	2cc\	.	2gg\	.
.	.	.	.	.	.	8cc\)	.	.	.	.	.	.	.	.	.	.	.	.	.	.	.	.	.
.	.	.	.	.	.	8cc'\	.	.	.	.	.	.	.	.	.	.	.	.	.	.	.	.	.
.	.	.	.	.	.	8cc'\J	.	.	.	.	.	.	.	.	.	.	.	.	.	.	.	.	.
2r	.	2f\	.	2a/	.	(8aa\L	.	.	.	.	.	.	.	.	.	2r	.	.	.	2ff\)	.	2aa\	.
.	.	.	.	.	.	8cc\)	.	.	.	.	.	.	.	.	.	.	.	.	.	.	.	.	.
.	.	.	.	.	.	8cc'\	.	.	.	.	.	.	.	.	.	.	.	.	.	.	.	.	.
.	.	.	.	.	.	8cc'\J	.	.	.	.	.	.	.	.	.	.	.	.	.	.	.	.	.
!LO:LB:g=original	!	!	!	!	!	!	!	!	!	!	!	!	!	!	!	!	!	!	!	!	!	!	!
=61	=61	=61	=61	=61	=61	=61	=61	=61	=61	=61	=61	=61	=61	=61	=61	=61	=61	=61	=61	=61	=61	=61	=61
.	.	8qqg/	.	.	.	16qqgg/	.	.	.	.	.	.	.	.	.	.	.	.	.	.	.	.	.
!	!	!	!	!	!	!LO:TX:b:i:t=dolce.	!	!	!	!	!	!	!	!	!	!	!	!	!	!LO:TX:a:t=4	!	!LO:TX:a:t=4	!
4F\	.	(2f\	.	2dd\	.	(2ff\	.	1ryy	1ryy	1ryy	00r	.	.	1ryy	1ryy	4F\	.	1ryy	1ryy	00r	.	00r	.
4r	.	.	.	.	.	.	.	.	.	.	.	.	.	.	.	4r	.	.	.	.	.	.	.
!	!	!LO:SIC:v:o=4e-\	!	!	!	!LO:SIC:v:o=4ee-\)	!	!	!	!	!	!	!	!	!	!	!	!	!	!	!	!	!
2r	.	4en\	.	4cc\	.	4een\)	.	.	.	.	.	.	.	.	.	2r	.	.	.	.	.	.	.
.	.	4d\)	.	4b-\	.	4dd\	.	.	.	.	.	.	.	.	.	.	.	.	.	.	.	.	.
!	!	!	!	!	!	!LO:LB:g=original	!	!	!	!	!	!	!	!	!	!	!	!	!	!	!	!	!
=62	=62	=62	=62	=62	=62	=62	=62	=62	=62	=62	=62	=62	=62	=62	=62	=62	=62	=62	=62	=62	=62	=62	=62
4F\	.	(2d\	.	2b-\	.	2dd\	.	1ryy	1ryy	1ryy	.	.	.	1ryy	1ryy	4F\	.	1ryy	1ryy	.	.	.	.
4r	.	.	.	.	.	.	.	.	.	.	.	.	.	.	.	4r	.	.	.	.	.	.	.
2r	.	4c\	.	4a/	.	4cc\	.	.	.	.	.	.	.	.	.	2r	.	.	.	.	.	.	.
.	.	4B-\)	.	4g/	.	4b-\	.	.	.	.	.	.	.	.	.	.	.	.	.	.	.	.	.
=63	=63	=63	=63	=63	=63	=63	=63	=63	=63	=63	=63	=63	=63	=63	=63	=63	=63	=63	=63	=63	=63	=63	=63
.	.	.	.	.	.	16qqcc/	.	.	.	.	.	.	.	.	.	.	.	.	.	.	.	.	.
4F\	.	(2B-/	.	2g/	.	2b-\	.	1ryy	1ryy	1ryy	.	.	.	1ryy	1ryy	4F\	.	1ryy	1ryy	.	.	.	.
4r	.	.	.	.	.	.	.	.	.	.	.	.	.	.	.	4r	.	.	.	.	.	.	.
2r	.	4A/	.	4f/	.	4a\	.	.	.	.	.	.	.	.	.	2r	.	.	.	.	.	.	.
.	.	4G/)	.	4en/	.	4g\	.	.	.	.	.	.	.	.	.	.	.	.	.	.	.	.	.
=64	=64	=64	=64	=64	=64	=64	=64	=64	=64	=64	=64	=64	=64	=64	=64	=64	=64	=64	=64	=64	=64	=64	=64
4r	.	(8A/L	.	8f/L	.	(8a/L	.	1ryy	1ryy	1ryy	.	.	.	1ryy	1ryy	4r	.	1ryy	1ryy	.	.	.	.
.	.	8B-/	.	8g/	.	8b-/	.	.	.	.	.	.	.	.	.	.	.	.	.	.	.	.	.
4F\	.	8c/	.	8a/	.	8cc/	.	.	.	.	.	.	.	.	.	4F\	.	.	.	.	.	.	.
.	.	8d/J)	.	8b-/J	.	8dd/J)	.	.	.	.	.	.	.	.	.	.	.	.	.	.	.	.	.
4FF/	.	4c/	.	4a/	.	4cc\	.	.	.	.	.	.	.	.	.	4FF/	.	.	.	.	.	.	.
4F\	.	4r	.	4r	.	4r	.	.	.	.	.	.	.	.	.	4F\	.	.	.	.	.	.	.
=65	=65	=65	=65	=65	=65	=65	=65	=65	=65	=65	=65	=65	=65	=65	=65	=65	=65	=65	=65	=65	=65	=65	=65
!	!LO:DY:rj	!	!	!	!	!	!	!	!	!	!	!	!	!	!	!	!	!	!	!LO:TX:b:i:t=Dolce	!	!LO:TX:b:i:t=Dolce	!
4FF/	p	2f\	.	2dd\	.	(2ff\	.	1ryy	1ryy	1ryy	00r	.	.	1ryy	1ryy	2f\	.	1ryy	1ryy	(2ddd\	.	(2fff\	.
4r	.	.	.	.	.	.	.	.	.	.	.	.	.	.	.	.	.	.	.	.	.	.	.
!	!	!	!	!	!	!LO:SIC:v:o=4ee-\)	!	!	!	!	!	!	!	!	!	!	!	!	!	!	!	!LO:SIC:v:o=4eee-\	!
2r	.	2r	.	4cc\	.	4een\)	.	.	.	.	.	.	.	.	.	(4en\	.	.	.	4ccc\	.	4eeen\	.
.	.	.	.	4b-\	.	4dd\	.	.	.	.	.	.	.	.	.	4d\)	.	.	.	4bb-\)	.	4ddd\)	.
=66	=66	=66	=66	=66	=66	=66	=66	=66	=66	=66	=66	=66	=66	=66	=66	=66	=66	=66	=66	=66	=66	=66	=66
4FF/	.	2f\	.	2b-\	.	(2dd\	.	1ryy	1ryy	1ryy	.	.	.	1ryy	1ryy	(2d\	.	1ryy	1ryy	(2bb-\	.	(2ddd\	.
4r	.	.	.	.	.	.	.	.	.	.	.	.	.	.	.	.	.	.	.	.	.	.	.
2r	.	2r	.	4a/	.	4cc\)	.	.	.	.	.	.	.	.	.	4c\	.	.	.	4aa\	.	4ccc\	.
.	.	.	.	4g/	.	4b-\	.	.	.	.	.	.	.	.	.	4B-\)	.	.	.	4gg\)	.	4bb-\)	.
=67	=67	=67	=67	=67	=67	=67	=67	=67	=67	=67	=67	=67	=67	=67	=67	=67	=67	=67	=67	=67	=67	=67	=67
4FF/	.	2f\	.	2g/	.	(2b-\	.	1ryy	1ryy	1ryy	.	.	.	1ryy	1ryy	(2B-\	.	1ryy	1ryy	(2gg\	.	(2bb-\	.
4r	.	.	.	.	.	.	.	.	.	.	.	.	.	.	.	.	.	.	.	.	.	.	.
2r	.	2r	.	4f/	.	4a\)	.	.	.	.	.	.	.	.	.	4A\	.	.	.	4ff\	.	4aa\	.
!	!	!	!	!LO:SIC:v:o=4e-/	!	!	!LO:DY:a	!	!	!	!	!	!	!	!	!	!	!	!	!	!	!	!
.	.	.	.	4en/	.	4g\	f	.	.	.	.	.	.	.	.	4G\)	.	.	.	4ee-\)	.	4gg\)	.
=68	=68	=68	=68	=68	=68	=68	=68	=68	=68	=68	=68	=68	=68	=68	=68	=68	=68	=68	=68	=68	=68	=68	=68
!	!	!	!LO:DY:t=for&colon;	!	!	!	!	!	!	!	!	!	!	!	!	!	!	!	!	!	!LO:DY:t=f&colon;	!	!LO:DY:t=f&colon;
2A\	.	2f\	f	2a/	.	2cc\	.	1ryy	1ryy	1ryy	.	.	.	1ryy	1ryy	2A\	.	1ryy	1ryy	2aa\	f	2ccc\	f
2F\	.	2a\	.	2cc\	.	2ee-X\	.	.	.	.	.	.	.	.	.	2c\	.	.	.	2aa\	.	2eee-X\	.
!	!	!	!	!LO:LB:g=original	!	!	!	!	!	!	!	!	!	!	!	!	!	!	!	!	!	!	!
=69	=69	=69	=69	=69	=69	=69	=69	=69	=69	=69	=69	=69	=69	=69	=69	=69	=69	=69	=69	=69	=69	=69	=69
2B-\	.	2f\	.	(8c#X/L	.	(8cc#X\L	.	1ryy	1ryy	1ryy	1r	.	.	1ryy	1ryy	2B-\	.	1ryy	1ryy	2bb-\	.	2ddd\	.
.	.	.	.	8d/	.	8dd\	.	.	.	.	.	.	.	.	.	.	.	.	.	.	.	.	.
.	.	.	.	8en/	.	8een\	.	.	.	.	.	.	.	.	.	.	.	.	.	.	.	.	.
.	.	.	.	8f/J)	.	8ff\J)	.	.	.	.	.	.	.	.	.	.	.	.	.	.	.	.	.
2r	.	2r	.	(8e/L	.	(8ee\L	.	.	.	.	.	.	.	.	.	2r	.	.	.	2r	.	2r	.
.	.	.	.	8d/	.	8dd\	.	.	.	.	.	.	.	.	.	.	.	.	.	.	.	.	.
!	!	!	!	!	!	!LO:TX:t=P:problem:♮ above	!	!	!	!	!	!	!	!	!	!	!	!	!	!	!	!	!
.	.	.	.	8cn/	.	8ccn\	.	.	.	.	.	.	.	.	.	.	.	.	.	.	.	.	.
.	.	.	.	8B-/J)	.	8b-\J)	.	.	.	.	.	.	.	.	.	.	.	.	.	.	.	.	.
!	!	!LO:LB:g=original	!	!	!	!	!	!	!	!	!	!	!	!	!	!	!	!	!	!	!	!	!
=70	=70	=70	=70	=70	=70	=70	=70	=70	=70	=70	=70	=70	=70	=70	=70	=70	=70	=70	=70	=70	=70	=70	=70
!	!	!	!	!	!	!	!LO:DY:a	!	!	!	!	!	!	!	!	!	!	!	!	!	!	!	!
4c\	.	(2c\	.	4.f/	.	4.a/	f	1ryy	1ryy	1ryy	0r	.	.	1ryy	1ryy	4c\	.	1ryy	1ryy	4.ff\	.	4.aa\	.
4c\	.	.	.	.	.	.	.	.	.	.	.	.	.	.	.	4c\	.	.	.	.	.	.	.
.	.	.	.	8a/	.	8cc/	.	.	.	.	.	.	.	.	.	.	.	.	.	8aa\	.	8ccc\	.
!	!	!	!	!	!	!	!	!	!	!	!	!	!	!	!	!	!	!	!	!	!	!LO:LB:g=original	!
4C/	.	4d\)	.	(8g/L	.	(8b-/L	.	.	.	.	.	.	.	.	.	4C/	.	.	.	(8gg\L	.	8bb-\L	.
.	.	.	.	8B-/)	.	8a/)	.	.	.	.	.	.	.	.	.	.	.	.	.	8b-\	.	8gg\	.
4C/	.	4c\	.	8A/	.	(8g/	.	.	.	.	.	.	.	.	.	4C/	.	.	.	8a\	.	8ff\	.
.	.	.	.	8G/J	.	8f/J)	.	.	.	.	.	.	.	.	.	.	.	.	.	8g\J)	.	8een\J	.
=71	=71	=71	=71	=71	=71	=71	=71	=71	=71	=71	=71	=71	=71	=71	=71	=71	=71	=71	=71	=71	=71	=71	=71
!	!	!	!	!	!	!LO:SIC:v:o=2e-/	!	!	!	!	!	!	!	!	!	!	!	!	!	!	!	!LO:SIC:v:o=2ee-\	!
(<2C/	.	2c\	.	2G/	.	2en/	.	1ryy	1ryy	1ryy	.	.	.	1ryy	1ryy	2C/	.	1ryy	1ryy	(2g/	.	2een\	.
4F\)	.	4c\	.	4A/	.	4f/	.	.	.	.	.	.	.	.	.	4F\	.	.	.	4a/)	.	4ff\	.
4r	.	4r	.	4r	.	4r	.	.	.	.	.	.	.	.	.	4r	.	.	.	4r	.	4r	.
!LO:LB:g=original	!	!	!	!	!	!	!	!	!	!	!	!	!	!	!	!	!	!	!	!	!	!	!
=72	=72	=72	=72	=72	=72	=72	=72	=72	=72	=72	=72	=72	=72	=72	=72	=72	=72	=72	=72	=72	=72	=72	=72
!	!	!	!LO:DY:t=p&colon;	!	!LO:DY:a	!	!LO:DY:a	!	!	!	!	!	!	!	!	!	!	!	!	!LO:TX:a:t=13	!	!LO:TX:a:t=12	!
4F\	.	2c\	p	2a/	p	2cc\	p	1ryy	1ryy	1ryy	(2cc\	Kto-	.	1ryy	1ryy	4F\	.	1ryy	1ryy	00r	.	00r	.
4FF/	.	.	.	.	.	.	.	.	.	.	.	.	.	.	.	4FF/	.	.	.	.	.	.	.
!	!	!	!	!	!	!	!	!	!	!	!	!	!	!	!	!LO:LB:g=original	!	!	!	!	!	!	!
4r	.	4r	.	(8g/L	.	(8b-\L	.	.	.	.	8b-\L)	.	.	.	.	4r	.	.	.	.	.	.	.
.	.	.	.	8f/	.	8a\	.	.	.	.	8a\J	.	.	.	.	.	.	.	.	.	.	.	.
4F\	.	4c\	.	8B-/	.	8g\	.	.	.	.	8g\L	.	.	.	.	4F\	.	.	.	.	.	.	.
.	.	.	.	8A/J)	.	8f\J)	.	.	.	.	8f\J	-ra	.	.	.	.	.	.	.	.	.	.	.
!	!	!	!	!	!	!LO:LB:g=original	!	!	!	!	!	!	!	!	!	!	!	!	!	!	!	!	!
=73	=73	=73	=73	=73	=73	=73	=73	=73	=73	=73	=73	=73	=73	=73	=73	=73	=73	=73	=73	=73	=73	=73	=73
(2C/	.	2c\	.	4.G/	.	4.en/	.	1ryy	1ryy	1ryy	4.en/	pła-	.	1ryy	1ryy	2C/	.	1ryy	1ryy	.	.	.	.
.	.	.	.	16A/LL	.	(16f/LL	.	.	.	.	16f/LL	-ka-	.	.	.	.	.	.	.	.	.	.	.
.	.	.	.	16B-/JJ	.	16g/JJ)	.	.	.	.	16g/JJ	.	.	.	.	.	.	.	.	.	.	.	.
4F\)	.	4c\	.	4A/	.	4f/	.	.	.	.	4f/	-ła	.	.	.	2F\	.	.	.	.	.	.	.
4r	.	4r	.	4r	.	4r	.	.	.	.	4r	.	.	.	.	.	.	.	.	.	.	.	.
=74	=74	=74	=74	=74	=74	=74	=74	=74	=74	=74	=74	=74	=74	=74	=74	=74	=74	=74	=74	=74	=74	=74	=74
2A\	.	(2c\	.	2cc\	.	(2ee-X\	.	1ryy	1ryy	1ryy	(2ee-X\	i	.	1ryy	1ryy	(2A\	.	1ryy	1ryy	.	.	.	.
(4G\	.	4d\	.	(4b-\	.	4dd\)	.	.	.	.	4dd\)	łka-	.	.	.	4G\)	.	.	.	.	.	.	.
4F#X\)	.	4e-X\)	.	4a\)	.	4cc\	.	.	.	.	4cc\	-ła	.	.	.	4F#X\	.	.	.	.	.	.	.
=75	=75	=75	=75	=75	=75	=75	=75	=75	=75	=75	=75	=75	=75	=75	=75	=75	=75	=75	=75	=75	=75	=75	=75
!LO:SIC:v:o=(2F\	!	!	!	!	!	!	!	!	!	!	!	!	!	!	!	!LO:SIC:v:o=(2F\	!	!	!	!	!	!	!
(2F#\	.	(2e-\	.	2a/	.	(2cc\	.	1ryy	1ryy	1ryy	2cc\	z_Ƶa-	.	1ryy	1ryy	(2F#\	.	1ryy	1ryy	.	.	.	.
4G\)	.	4d\)	.	4g/	.	4b-\)	.	.	.	.	4b-\	-lem	.	.	.	4G\)	.	.	.	.	.	.	.
4r	.	4r	.	4r	.	4r	.	.	.	.	4r	.	.	.	.	4r	.	.	.	.	.	.	.
!	!	!	!	!	!	!	!	!	!	!	!LO:LB:g=original	!	!	!	!	!	!	!	!	!	!	!	!
=76	=76	=76	=76	=76	=76	=76	=76	=76	=76	=76	=76	=76	=76	=76	=76	=76	=76	=76	=76	=76	=76	=76	=76
2G\	.	(2B-/	.	2b-/	.	(2dd\	.	1ryy	1ryy	1ryy	(2dd\	drza-	.	1ryy	1ryy	(2G\	.	1ryy	1ryy	00r	.	00r	.
!	!	!LO:N:vis=4.	!	!	!	!	!	!	!	!	!	!	!	!	!	!	!	!	!	!	!	!	!
(4Fn\	.	4c/	.	4a/	.	4cc\)	.	.	.	.	4cc\)	.	.	.	.	4Fn\	.	.	.	.	.	.	.
!	!	!LO:SIC:v:o=4d-X\	!	!	!	!	!	!	!	!	!	!	!	!	!	!	!	!	!	!	!	!	!
4E-\)	.	4e-\	.	4g/	.	4b-\	.	.	.	.	4b-\	.	.	.	.	4E-\)	.	.	.	.	.	.	.
=77	=77	=77	=77	=77	=77	=77	=77	=77	=77	=77	=77	=77	=77	=77	=77	=77	=77	=77	=77	=77	=77	=77	=77
!	!	!LO:SIC:v:o=2d-X\	!	!	!	!	!	!	!	!	!	!	!	!	!	!	!	!	!	!	!	!	!
(2E-\	.	2e-\	.	2g/	.	(2b-\	.	1ryy	1ryy	1ryy	2b-\	.	.	1ryy	1ryy	(2E-\	.	1ryy	1ryy	.	.	.	.
4F\)	.	4c\)	.	4f/	.	4a\)	.	.	.	.	4a\	-la	.	.	.	4F\)	.	.	.	.	.	.	.
4r	.	4r	.	4r	.	4r	.	.	.	.	4r	.	.	.	.	4r	.	.	.	.	.	.	.
=78	=78	=78	=78	=78	=78	=78	=78	=78	=78	=78	=78	=78	=78	=78	=78	=78	=78	=78	=78	=78	=78	=78	=78
4F\	.	2c\	.	2a/	.	2cc\	.	1ryy	1ryy	1ryy	(2cc\	gdy	.	1ryy	1ryy	4F\	.	1ryy	1ryy	.	.	.	.
4FF/	.	.	.	.	.	.	.	.	.	.	.	.	.	.	.	4FF/	.	.	.	.	.	.	.
!	!	!	!	!LO:LB:g=original	!	!	!	!	!	!	!	!	!	!	!	!	!	!	!	!	!	!	!
4r	.	(8f\L	.	8dd\L	.	(8ff\L	.	.	.	.	8ff\L)	.	.	.	.	4r	.	.	.	.	.	.	.
.	.	8e-X\J)	.	8cc\	.	8ee-\	.	.	.	.	8ee-X\J	wi-	.	.	.	.	.	.	.	.	.	.	.
4F\	.	(8dn\L	.	8b-\	.	8dd\	.	.	.	.	8dd\L	-dzia-	.	.	.	4F\	.	.	.	.	.	.	.
.	.	8c\J)	.	8a\J	.	8cc\J)	.	.	.	.	8cc\J	.	.	.	.	.	.	.	.	.	.	.	.
=79	=79	=79	=79	=79	=79	=79	=79	=79	=79	=79	=79	=79	=79	=79	=79	=79	=79	=79	=79	=79	=79	=79	=79
4B-\	.	2f\	.	2dd\	.	2ff\	.	1ryy	1ryy	1ryy	(2ff\	-ła	.	1ryy	1ryy	4B-\	.	1ryy	1ryy	.	.	.	.
4BB-/	.	.	.	.	.	.	.	.	.	.	.	.	.	.	.	4BB-/	.	.	.	.	.	.	.
4r	.	(8b-\L	.	8gg\L	.	(8bb-X\L	.	.	.	.	8bb-X\L	Mę-	.	.	.	4r	.	.	.	.	.	.	.
.	.	8a\	.	8ff\	.	8aa\	.	.	.	.	8aa\J)	.	.	.	.	.	.	.	.	.	.	.	.
4BB-/	.	8g\	.	8ee-X\	.	8gg\	.	.	.	.	8gg\L	-kę	.	.	.	4BB-/	.	.	.	.	.	.	.
.	.	8f\J)	.	8dd\J	.	8ff\J)	.	.	.	.	8ff\J	.	.	.	.	.	.	.	.	.	.	.	.
!	!	!LO:LB:g=original	!	!	!	!	!	!	!	!	!	!	!	!	!	!	!	!	!	!	!	!	!
=80	=80	=80	=80	=80	=80	=80	=80	=80	=80	=80	=80	=80	=80	=80	=80	=80	=80	=80	=80	=80	=80	=80	=80
4C/	.	2f\	.	2cc\	.	2ee-X\	.	1ryy	1ryy	1ryy	2ee-X\	Sy-	.	1ryy	1ryy	4C/	.	1ryy	1ryy	00r	.	00r	.
4A\	.	.	.	.	.	.	.	.	.	.	.	.	.	.	.	4A\	.	.	.	.	.	.	.
4B-\	.	2f\	.	2b-\	.	2dd\	.	.	.	.	2dd\	-na	.	.	.	4B-\	.	.	.	.	.	.	.
4BB-/	.	.	.	.	.	.	.	.	.	.	.	.	.	.	.	4BB-/	.	.	.	.	.	.	.
=81	=81	=81	=81	=81	=81	=81	=81	=81	=81	=81	=81	=81	=81	=81	=81	=81	=81	=81	=81	=81	=81	=81	=81
[2F\	.	2f\	.	2b-\	.	2dd\	.	1ryy	1ryy	1ryy	2ddt\	Swe-	.	1ryy	1ryy	[2F\	.	1ryy	1ryy	.	.	.	.
.	.	.	.	16qqa/LL	.	16qqcc/LL	.	.	.	.	16qqcc/LL	.	.	.	.	.	.	.	.	.	.	.	.
.	.	.	.	16qqb-/JJ	.	16qqdd/JJ	.	.	.	.	16qqdd/JJ	.	.	.	.	.	.	.	.	.	.	.	.
8.F\L]	.	4f\	.	4a\	.	4cc\	.	.	.	.	4cc\	-go	.	.	.	8.F\L]	.	.	.	.	.	.	.
16E-\K	.	.	.	.	.	.	.	.	.	.	.	.	.	.	.	16E-\K	.	.	.	.	.	.	.
8D\	.	4r	.	4r	.	4r	.	.	.	.	4r	.	.	.	.	8D\	.	.	.	.	.	.	.
8C\J	.	.	.	.	.	.	.	.	.	.	.	.	.	.	.	8C\J	.	.	.	.	.	.	.
=82	=82	=82	=82	=82	=82	=82	=82	=82	=82	=82	=82	=82	=82	=82	=82	=82	=82	=82	=82	=82	=82	=82	=82
!	!	!	!	!	!	!LO:TX:b:i:t=W&colon; S&colon;	!	!	!	!	!	!	!	!	!	!	!	!	!	!	!	!	!
2BB-/	.	2r	.	2r	.	2r	.	1ryy	1ryy	1ryy	2r	.	.	1ryy	1ryy	2BB-/	.	1ryy	1ryy	.	.	.	.
!	!	!	!	!LO:N:vis=8	!	!LO:PB:g=original	!	!	!	!	!	!	!	!	!	!	!	!	!	!	!	!	!
2r	.	(4B-'/	.	4f'/L	.	4dd\	.	.	.	.	4dd\	Mę-	.	.	.	2r	.	.	.	.	.	.	.
!	!	!	!	!LO:N:vis=8	!	!	!	!	!	!	!	!	!	!	!	!	!	!	!	!	!	!	!
.	.	4B-'/)	.	4f'/J	.	4dd\	.	.	.	.	4dd\	-ke	.	.	.	.	.	.	.	.	.	.	.
!LO:PB:g=original	!	!	!	!	!	!	!	!	!	!	!LO:LB:g=original	!	!	!	!	!	!	!	!	!	!	!	!
=83	=83	=83	=83	=83	=83	=83	=83	=83	=83	=83	=83	=83	=83	=83	=83	=83	=83	=83	=83	=83	=83	=83	=83
2BB-/	.	2B-/	.	2f/	.	4.dd\	.	1ryy	1ryy	1ryy	4.dd\	Sy-	.	1ryy	1ryy	2BB-/	.	1ryy	1ryy	.	.	.	.
.	.	.	.	.	.	(16ee-\LL	.	.	.	.	16ee-\LL	.	.	.	.	.	.	.	.	.	.	.	.
.	.	.	.	.	.	16ff\JJ)	.	.	.	.	16ff\JJ	.	.	.	.	.	.	.	.	.	.	.	.
2r	.	2r	.	(8g/L	.	(8ee-\L	.	.	.	.	8ee-\L	-na	.	.	.	2r	.	.	.	.	.	.	.
.	.	.	.	8f/	.	8dd\	.	.	.	.	8dd\J	.	.	.	.	.	.	.	.	.	.	.	.
.	.	.	.	8e-/	.	8cc\	.	.	.	.	8cc\L	.	.	.	.	.	.	.	.	.	.	.	.
.	.	.	.	8d/J)	.	8b-\J)	.	.	.	.	8b-\J	mi-	.	.	.	.	.	.	.	.	.	.	.
=84	=84	=84	=84	=84	=84	=84	=84	=84	=84	=84	=84	=84	=84	=84	=84	=84	=84	=84	=84	=84	=84	=84	=84
(2F\	.	2f\	.	2c/	.	2a/	.	1ryy	1ryy	1ryy	2a\	-łe-	.	1ryy	1ryy	2F\	.	1ryy	1ryy	1r	.	2r	.
4BB-\)	.	4f\	.	4d/	.	4b-/	.	.	.	.	4b-\	-go	.	.	.	4BB-/	.	.	.	.	.	4r	.
.	.	.	.	.	.	16qqg/	.	.	.	.	.	.	.	.	.	.	.	.	.	.	.	.	.
4r	.	4r	.	4r	.	8f/L	.	.	.	.	4r	.	.	.	.	4r	.	.	.	.	.	4ff\	p
.	.	.	.	.	.	16e-/L	.	.	.	.	.	.	.	.	.	.	.	.	.	.	.	.	.
.	.	.	.	.	.	16f/JJ	.	.	.	.	.	.	.	.	.	.	.	.	.	.	.	.	.
=85	=85	=85	=85	=85	=85	=85	=85	=85	=85	=85	=85	=85	=85	=85	=85	=85	=85	=85	=85	=85	=85	=85	=85
!	!	!	!	!	!	!	!	!	!	!	!	!	!	!	!	!	!	!	!	!	!LO:DY:t=p&colon;	!	!
2BB-/	.	(2B-/	.	(2d/	.	(2b-\	.	1ryy	1ryy	1ryy	2b-\	ktoz-	.	1ryy	1ryy	2BB-/	.	1ryy	1ryy	2dd\	p	(2bb-\	.
2F\	.	4f'\	.	2a/)	.	2cc\)	.	.	.	.	2cc\	.	.	.	.	2F\	.	.	.	2aa\	.	2ccc\)	.
.	.	4f'\)	.	.	.	.	.	.	.	.	.	.	.	.	.	.	.	.	.	.	.	.	.
!	!	!	!	!	!	!	!	!	!	!	!	!	!	!	!	!LO:LB:g=original	!	!	!	!	!	!	!
=86	=86	=86	=86	=86	=86	=86	=86	=86	=86	=86	=86	=86	=86	=86	=86	=86	=86	=86	=86	=86	=86	=86	=86
.	.	.	.	.	.	16qqff/	.	.	.	.	.	.	.	.	.	.	.	.	.	.	.	.	.
(2F\	.	2a\	.	2cc\	.	(2ee-\	.	1ryy	1ryy	1ryy	2ee-\	-by	.	1ryy	1ryy	2F\	.	1ryy	1ryy	2ccc\	.	(2eee-\	.
4BB-\)	.	4f\	.	4b-\	.	4dd\)	.	.	.	.	4dd\	się	.	.	.	4BB-/	.	.	.	4bb-\	.	4ddd\)	.
4r	.	4r	.	4r	.	8r	.	.	.	.	4r	.	.	.	.	4r	.	.	.	4r	.	4r	.
.	.	.	.	.	.	8b-\	.	.	.	.	.	.	.	.	.	.	.	.	.	.	.	.	.
=87	=87	=87	=87	=87	=87	=87	=87	=87	=87	=87	=87	=87	=87	=87	=87	=87	=87	=87	=87	=87	=87	=87	=87
!	!	!	!	!	!	!	!	!	!	!	!	!	!	!	!	!	!	!	!	!LO:TX:a:t=2	!	!LO:TX:a:t=2.	!
(2G\	.	(2g\	.	2b-\	.	(2ee-\	.	1ryy	1ryy	1ryy	2ee-\	w_So-	.	1ryy	1ryy	(2G\	.	1ryy	1ryy	0r	.	0r	.
4F\)	.	4f\)	.	4b-\	.	4dd\)	.	.	.	.	4dd\	-bie	.	.	.	4F\)	.	.	.	.	.	.	.
4r	.	4r	.	4r	.	8r	.	.	.	.	4r	.	.	.	.	4r	.	.	.	.	.	.	.
.	.	.	.	.	.	8b-\	.	.	.	.	.	.	.	.	.	.	.	.	.	.	.	.	.
=88	=88	=88	=88	=88	=88	=88	=88	=88	=88	=88	=88	=88	=88	=88	=88	=88	=88	=88	=88	=88	=88	=88	=88
(2E-\	.	(2e-\	.	2b-\	.	(2gg\	.	1ryy	1ryy	1ryy	(2gg\	ktoz-	.	1ryy	1ryy	(2E-\	.	1ryy	1ryy	.	.	.	.
4D\)	.	4d\)	.	4b-\	.	4ff\)	.	.	.	.	4ff\)	-by	.	.	.	4D\)	.	.	.	.	.	.	.
4r	.	4r	.	4r	.	4b-\	.	.	.	.	4b-\	się	.	.	.	4r	.	.	.	.	.	.	.
!	!	!	!	!LO:LB:g=original	!	!	!	!	!	!	!	!	!	!	!	!	!	!	!	!	!	!	!
=89	=89	=89	=89	=89	=89	=89	=89	=89	=89	=89	=89	=89	=89	=89	=89	=89	=89	=89	=89	=89	=89	=89	=89
4r	.	(4c\	.	4r	.	(8a\L	.	1ryy	1ryy	1ryy	(8b-\L	nie	.	1ryy	1ryy	4r	.	1ryy	1ryy	4r	.	8aa\L	.
.	.	.	.	.	.	8cc\J)	.	.	.	.	8cc\J	.	.	.	.	.	.	.	.	.	.	8ccc\J	.
4F\	.	2e-\	.	2cc\	.	(2ee-\	.	.	.	.	2ee-\)	wzru-	.	.	.	4F\	.	.	.	2ccc\	.	2eee-\	.
4A\	.	.	.	.	.	.	.	.	.	.	.	.	.	.	.	4A\	.	.	.	.	.	.	.
4B-\	.	4d\)	.	4b-\	.	4dd\)	.	.	.	.	4dd\	-szył	.	.	.	4B-\	.	.	.	4bb-\	.	4ddd\	.
!	!	!	!	!	!	!	!	!	!	!	!LO:LB:g=original	!	!	!	!	!	!	!	!	!LO:LB:g=original	!	!	!
=90	=90	=90	=90	=90	=90	=90	=90	=90	=90	=90	=90	=90	=90	=90	=90	=90	=90	=90	=90	=90	=90	=90	=90
2F\	.	2f\	.	2b-\	.	2dd\	.	1ryy	1ryy	1ryy	2dd\	w_So-	.	1ryy	1ryy	2F\	.	1ryy	1ryy	2bb-\	.	2ddd\	.
.	.	.	.	.	.	16qqcc/LL	.	.	.	.	16qqcc/LL	.	.	.	.	.	.	.	.	.	.	.	.
.	.	.	.	.	.	16qqdd/JJ	.	.	.	.	16qqdd/JJ	.	.	.	.	.	.	.	.	.	.	.	.
4FF/	.	4f\	.	4b-\	.	4cc\	.	.	.	.	4cc\	-bie	.	.	.	4FF/	.	.	.	4aa\	.	4ccc\	.
4r	.	4r	.	4r	.	4r	.	.	.	.	4r	.	.	.	.	4r	.	.	.	4r	.	4r	.
!	!	!	!	!	!	!LO:LB:g=original	!	!	!	!	!	!	!	!	!	!	!	!	!	!	!	!	!
=91	=91	=91	=91	=91	=91	=91	=91	=91	=91	=91	=91	=91	=91	=91	=91	=91	=91	=91	=91	=91	=91	=91	=91
!	!	!	!	!	!	!	!	!	!	!	!	!	!	!	!	!	!	!	!	!LO:TX:a:t=1.	!	!LO:TX:a:t=1.	!
2BB-/	.	2f\	.	2d/	.	(2b-/	.	1ryy	1ryy	1ryy	2b-\	po-	.	1ryy	1ryy	2BB-/	.	1ryy	1ryy	1r	.	1r	.
2D/	.	2b-\	.	2f/	.	2a-X/)	.	.	.	.	2a-X\	-mniąc	.	.	.	2D/	.	.	.	.	.	.	.
!	!	!LO:LB:g=original	!	!	!	!	!	!	!	!	!	!	!	!	!	!	!	!	!	!	!	!	!
=92	=92	=92	=92	=92	=92	=92	=92	=92	=92	=92	=92	=92	=92	=92	=92	=92	=92	=92	=92	=92	=92	=92	=92
2E-\	.	2b-\	.	2e-/	.	2g/	.	1ryy	1ryy	1ryy	(2g\	o	.	1ryy	1ryy	2E-\	.	1ryy	1ryy	2r	.	2r	.
2r	.	2r	.	(4g/	.	(4ee-\	.	.	.	.	4ee-\)	cięz-	.	.	.	2r	.	.	.	4gg\	p	(4eee-\	p
.	.	.	.	4a-X/)	.	4cc\)	.	.	.	.	4cc\	-kiey	.	.	.	.	.	.	.	4aa-X\	.	4ccc\)	.
=93	=93	=93	=93	=93	=93	=93	=93	=93	=93	=93	=93	=93	=93	=93	=93	=93	=93	=93	=93	=93	=93	=93	=93
2B-\	.	2b-\	.	2g/	.	2b-/	.	1ryy	1ryy	1ryy	(2b-\	za-	.	1ryy	1ryy	2B-\	.	1ryy	1ryy	2gg\	.	2bb-\	.
2BB-/	.	2b-\	.	(8g/L	.	(8b-/L	.	.	.	.	8b-\L	.	.	.	.	2BB-/	.	.	.	(8gg\L	.	(8bb-\L	.
.	.	.	.	8f/	.	8a-X/	.	.	.	.	8a-X\J)	.	.	.	.	.	.	.	.	8ff\	.	8aa-X\	.
.	.	.	.	8e-/	.	8g/	.	.	.	.	8g\L	.	.	.	.	.	.	.	.	8ee-\	.	8gg\	.
.	.	.	.	8f/J)	.	8a-/J)	.	.	.	.	8a-\J	.	.	.	.	.	.	.	.	8ff\J)	.	8aa-\J)	.
!LO:LB:g=original	!	!	!	!	!	!	!	!	!	!	!	!	!	!	!	!	!	!	!	!	!	!	!
=94	=94	=94	=94	=94	=94	=94	=94	=94	=94	=94	=94	=94	=94	=94	=94	=94	=94	=94	=94	=94	=94	=94	=94
!	!	!	!	!	!	!LO:SIC:v:o=(2a/	!	!	!	!	!LO:SIC:v:o=2a\	!	!	!	!	!	!	!	!	!	!	!LO:SIC:v:o=2aa\	!
2E-\	.	2b-\	.	2f/	.	(2a-/	.	1ryy	1ryy	1ryy	2a-\	-ło-	.	1ryy	1ryy	2E-\	.	1ryy	1ryy	2ff\	.	2aa-\	.
4E-\	.	4b-\	.	4e-/	.	4g/)	.	.	.	.	4g\	-bie	.	.	.	4E-\	.	.	.	4ee-\	.	4gg\	.
4D\	.	4r	.	4r	.	4r	.	.	.	.	4r	.	.	.	.	4D\	.	.	.	4r	.	4r	.
=95	=95	=95	=95	=95	=95	=95	=95	=95	=95	=95	=95	=95	=95	=95	=95	=95	=95	=95	=95	=95	=95	=95	=95
!	!	!	!	!	!	!	!	!	!	!	!	!	!	!	!	!	!	!	!	!LO:TX:a:t=1.	!	!LO:TX:a:t=1.	!
2C/	.	2g\	.	2en/	.	(2cc\	.	1ryy	1ryy	1ryy	2cc\	po-	.	1ryy	1ryy	2C/	.	1ryy	1ryy	1r	.	1r	.
2En\	.	2cc\	.	2g/	.	2b-\)	.	.	.	.	2b-\	-mniąc	.	.	.	2En\	.	.	.	.	.	.	.
=96	=96	=96	=96	=96	=96	=96	=96	=96	=96	=96	=96	=96	=96	=96	=96	=96	=96	=96	=96	=96	=96	=96	=96
2F\	.	2cc\	.	2f/	.	2an/	.	1ryy	1ryy	1ryy	2an\	o	.	1ryy	1ryy	2F\	.	1ryy	1ryy	2r	.	2r	.
2r	.	2r	.	4an/	.	(4ff\	.	.	.	.	4ff\	cięz-	.	.	.	2r	.	.	.	4aan\	.	(4fff\	.
.	.	.	.	4b-/	.	4dd\)	.	.	.	.	4dd\	-kiey	.	.	.	.	.	.	.	4bb-\	.	4ddd\)	.
!	!	!	!	!	!	!	!	!	!	!	!LO:LB:g=original	!	!	!	!	!	!	!	!	!	!	!	!
=97	=97	=97	=97	=97	=97	=97	=97	=97	=97	=97	=97	=97	=97	=97	=97	=97	=97	=97	=97	=97	=97	=97	=97
2c\	.	2cc\	.	2a/	.	2cc\	.	1ryy	1ryy	1ryy	[2cc\	Sy-	.	1ryy	1ryy	2c\	.	1ryy	1ryy	2aa\	.	2ccc\	.
2C/	.	2cc\	.	(8a/L	.	(8cc\L	.	.	.	.	8cc\L]	.	.	.	.	2C/	.	.	.	(8aa\L	.	(8ccc\L	.
.	.	.	.	8g/	.	8b-\	.	.	.	.	8b-\J	.	.	.	.	.	.	.	.	8gg\	.	8bb-\	.
.	.	.	.	8f/	.	8a\	.	.	.	.	8a\L	-na	.	.	.	.	.	.	.	8ff\	.	8aan\	.
.	.	.	.	8g/J)	.	8b-\J)	.	.	.	.	8b-\J	.	.	.	.	.	.	.	.	8gg\J)	.	8bb-\J)	.
!	!	!	!	!	!	!	!	!	!	!	!	!	!	!	!	!	!	!	!	!	!	!LO:LB:g=original	!
=98	=98	=98	=98	=98	=98	=98	=98	=98	=98	=98	=98	=98	=98	=98	=98	=98	=98	=98	=98	=98	=98	=98	=98
2.F\	.	2cc\	.	2g/	.	(2b-/	.	1ryy	1ryy	1ryy	(2b-\	za-	.	1ryy	1ryy	2.F\	.	1ryy	1ryy	2gg\	.	2bb-\	.
.	.	4cc\	.	4f/	.	4a/)	.	.	.	.	4a\)	-ło-	.	.	.	.	.	.	.	4ff\	.	4aa\	.
4r	.	4r	.	4r	.	4ff\	.	.	.	.	4ff\	-bie	.	.	.	4r	.	.	.	4r	.	4r	.
=99	=99	=99	=99	=99	=99	=99	=99	=99	=99	=99	=99	=99	=99	=99	=99	=99	=99	=99	=99	=99	=99	=99	=99
!	!	!	!	!	!	!	!	!	!	!	!	!	!	!	!	!	!	!	!	!LO:TX:a:t=8	!	!LO:TX:a:t=8.	!
4E-\	.	4g\	.	4cc\	.	4ee-\	.	1ryy	1ryy	1ryy	2gg\	Ma-	.	1ryy	1ryy	4E-\	.	1ryy	1ryy	00r	.	00r	.
4E-\	.	4g\	.	4cc\	.	4ee-\	.	.	.	.	.	.	.	.	.	4E-\	.	.	.	.	.	.	.
4E-\	.	4g\	.	4cc\	.	4ee-\	.	.	.	.	12ee-\L	.	.	.	.	4E-\	.	.	.	.	.	.	.
.	.	.	.	.	.	.	.	.	.	.	12dd\	.	.	.	.	.	.	.	.	.	.	.	.
.	.	.	.	.	.	.	.	.	.	.	12cc\J	.	.	.	.	.	.	.	.	.	.	.	.
4E-\	.	4g\	.	4cc\	.	4ee-\	.	.	.	.	12bn\L	.	.	.	.	4E-\	.	.	.	.	.	.	.
.	.	.	.	.	.	.	.	.	.	.	12cc\	.	.	.	.	.	.	.	.	.	.	.	.
.	.	.	.	.	.	.	.	.	.	.	12dd\J	.	.	.	.	.	.	.	.	.	.	.	.
!	!	!	!	!LO:LB:g=original	!	!	!	!	!	!	!	!	!	!	!	!LO:LB:g=original	!	!	!	!	!	!	!
=100	=100	=100	=100	=100	=100	=100	=100	=100	=100	=100	=100	=100	=100	=100	=100	=100	=100	=100	=100	=100	=100	=100	=100
!	!	!	!	!LO:TX:a:t=c	!	!	!	!	!	!	!	!	!	!	!	!	!	!	!	!	!	!	!
4E-\	.	4g\	.	4cc\	.	4ee-\	.	1ryy	1ryy	1ryy	2cc\	-tki	.	1ryy	1ryy	4E-\	.	1ryy	1ryy	.	.	.	.
!	!	!	!	!LO:TX:a:t=.	!	!	!	!	!	!	!	!	!	!	!	!	!	!	!	!	!	!	!
4E-\	.	4g\	.	4cc\	.	4ee-\	.	.	.	.	.	.	.	.	.	4E-\	.	.	.	.	.	.	.
*	*	*	*	*	*	*	*	*	*	*	*Xtuplet	*	*	*	*	*	*	*	*	*	*	*	*
!	!	!	!	!LO:TX:a:t=.	!	!	!	!	!	!	!	!	!	!	!	!	!	!	!	!	!	!	!
4E-\	.	4g\	.	4cc\	.	4ee-\	.	.	.	.	12cc\L	z_Sy-	.	.	.	4E-\	.	.	.	.	.	.	.
.	.	.	.	.	.	.	.	.	.	.	12bn\	.	.	.	.	.	.	.	.	.	.	.	.
.	.	.	.	.	.	.	.	.	.	.	12cc\J	.	.	.	.	.	.	.	.	.	.	.	.
!	!	!	!	!LO:TX:a:t=.	!	!	!	!	!	!	!	!	!	!	!	!	!	!	!	!	!	!	!
4E-\	.	4g\	.	4cc\	.	4ee-\	.	.	.	.	12ee-\L	.	.	.	.	4E-\	.	.	.	.	.	.	.
.	.	.	.	.	.	.	.	.	.	.	12dd\	.	.	.	.	.	.	.	.	.	.	.	.
.	.	.	.	.	.	.	.	.	.	.	12cc\J	.	.	.	.	.	.	.	.	.	.	.	.
!	!	!	!	!	!	!LO:LB:g=original	!	!	!	!	!	!	!	!	!	!	!	!	!	!	!	!	!
=101	=101	=101	=101	=101	=101	=101	=101	=101	=101	=101	=101	=101	=101	=101	=101	=101	=101	=101	=101	=101	=101	=101	=101
4D\	.	4f\	.	4b-\	.	4dd\	.	1ryy	1ryy	1ryy	2ff\	-nem	.	1ryy	1ryy	4D\	.	1ryy	1ryy	.	.	.	.
4D\	.	4f\	.	4b-\	.	4dd\	.	.	.	.	.	.	.	.	.	4D\	.	.	.	.	.	.	.
4D\	.	4f\	.	4b-\	.	4dd\	.	.	.	.	12dd\L	ie-	.	.	.	4D\	.	.	.	.	.	.	.
.	.	.	.	.	.	.	.	.	.	.	12cc\	.	.	.	.	.	.	.	.	.	.	.	.
!	!	!	!	!	!	!	!	!	!	!	!LO:TX:a:t=P:problem:♭ above	!	!	!	!	!	!	!	!	!	!	!	!
.	.	.	.	.	.	.	.	.	.	.	12b-X\J	.	.	.	.	.	.	.	.	.	.	.	.
4D\	.	4f\	.	4b-\	.	4dd\	.	.	.	.	12a\L	.	.	.	.	4D\	.	.	.	.	.	.	.
.	.	.	.	.	.	.	.	.	.	.	12b-\	.	.	.	.	.	.	.	.	.	.	.	.
.	.	.	.	.	.	.	.	.	.	.	12cc\J	-dy-	.	.	.	.	.	.	.	.	.	.	.
=102	=102	=102	=102	=102	=102	=102	=102	=102	=102	=102	=102	=102	=102	=102	=102	=102	=102	=102	=102	=102	=102	=102	=102
4D\	.	4f\	.	4b-\	.	4dd\	.	1ryy	1ryy	1ryy	2b-\	-nem	.	1ryy	1ryy	4D\	.	1ryy	1ryy	.	.	.	.
4D\	.	4f\	.	4b-\	.	4dd\	.	.	.	.	.	.	.	.	.	4D\	.	.	.	.	.	.	.
!	!	!	!	!	!	!	!	!	!	!	!LO:LB:g=original	!	!	!	!	!	!	!	!	!	!	!	!
4D\	.	4f\	.	4b-\	.	4dd\	.	.	.	.	12b-\L	Dla	.	.	.	4D\	.	.	.	.	.	.	.
.	.	.	.	.	.	.	.	.	.	.	12a\	.	.	.	.	.	.	.	.	.	.	.	.
.	.	.	.	.	.	.	.	.	.	.	12b-\J	.	.	.	.	.	.	.	.	.	.	.	.
4D\	.	4f\	.	4b-\	.	4dd\	.	.	.	.	12dd\L	zło-	.	.	.	4D\	.	.	.	.	.	.	.
.	.	.	.	.	.	.	.	.	.	.	12cc\	.	.	.	.	.	.	.	.	.	.	.	.
.	.	.	.	.	.	.	.	.	.	.	12b-\J	.	.	.	.	.	.	.	.	.	.	.	.
=103	=103	=103	=103	=103	=103	=103	=103	=103	=103	=103	=103	=103	=103	=103	=103	=103	=103	=103	=103	=103	=103	=103	=103
4F\	.	4a\	.	4cc\	.	4ee-\	.	1ryy	1ryy	1ryy	2ee-\	-sci	.	1ryy	1ryy	4F\	.	1ryy	1ryy	00r	.	00r	.
4F\	.	4a\	.	4cc\	.	4ee-\	.	.	.	.	.	.	.	.	.	4F\	.	.	.	.	.	.	.
4F\	.	4a\	.	4cc\	.	4ee-\	.	.	.	.	12ee-\L	lu-	.	.	.	4F\	.	.	.	.	.	.	.
.	.	.	.	.	.	.	.	.	.	.	12dd\	.	.	.	.	.	.	.	.	.	.	.	.
.	.	.	.	.	.	.	.	.	.	.	12cc\J	.	.	.	.	.	.	.	.	.	.	.	.
4F\	.	4a\	.	4cc\	.	4ee-\	.	.	.	.	12cc\L	.	.	.	.	4F\	.	.	.	.	.	.	.
.	.	.	.	.	.	.	.	.	.	.	12dd\	.	.	.	.	.	.	.	.	.	.	.	.
.	.	.	.	.	.	.	.	.	.	.	12ee-\J	.	.	.	.	.	.	.	.	.	.	.	.
=104	=104	=104	=104	=104	=104	=104	=104	=104	=104	=104	=104	=104	=104	=104	=104	=104	=104	=104	=104	=104	=104	=104	=104
2BB-/	.	(4.d\	.	4.b-\	.	4.dd\	.	1ryy	1ryy	1ryy	4.dd\	-du	.	1ryy	1ryy	2BB-/	.	1ryy	1ryy	.	.	.	.
.	.	16e-\LL	.	16cc\LL	.	(16ee-\LL	.	.	.	.	16ee-\LL	Swe-	.	.	.	.	.	.	.	.	.	.	.
.	.	16f\JJ)	.	16dd\JJ	.	16ff\JJ)	.	.	.	.	16ff\JJ	.	.	.	.	.	.	.	.	.	.	.	.
4r	.	(8g\L	.	(8ee-\L	.	(8gg\L	.	.	.	.	8gg\L	.	.	.	.	4r	.	.	.	.	.	.	.
.	.	8f\	.	8dd\	.	8ff\	.	.	.	.	8ff\	.	.	.	.	.	.	.	.	.	.	.	.
4BB-/	.	8e-\	.	8cc\	.	8ee-\	.	.	.	.	8ee-\	.	.	.	.	4BB-/	.	.	.	.	.	.	.
.	.	8d\J)	.	8b-\J)	.	8dd\J)	.	.	.	.	8dd\J	.	.	.	.	.	.	.	.	.	.	.	.
!LO:LB:g=original	!	!LO:LB:g=original	!	!	!	!	!	!	!	!	!	!	!	!	!	!	!	!	!	!	!	!	!
=105	=105	=105	=105	=105	=105	=105	=105	=105	=105	=105	=105	=105	=105	=105	=105	=105	=105	=105	=105	=105	=105	=105	=105
2F\	.	2d\	.	2b-\	.	(2dd\	.	1ryy	1ryy	1ryy	2dd\	.	.	1ryy	1ryy	2F\	.	1ryy	1ryy	.	.	.	.
4FF/	.	4c\	.	4a\	.	4cc\)	.	.	.	.	4cc\	-go	.	.	.	4FF/	.	.	.	.	.	.	.
4r	.	4r	.	4r	.	4r	.	.	.	.	4r	.	.	.	.	4r	.	.	.	.	.	.	.
=106	=106	=106	=106	=106	=106	=106	=106	=106	=106	=106	=106	=106	=106	=106	=106	=106	=106	=106	=106	=106	=106	=106	=106
!LO:TX:a:t=1	!	!	!	!LO:TX:a:t=1.	!	!	!	!	!	!	!	!	!	!	!	!LO:TX:a:t=1	!	!	!	!	!	!	!
1r	.	1r	.	1r	.	4f/	.	1ryy	1ryy	1ryy	4f/	Dla	.	1ryy	1ryy	1r	.	1ryy	1ryy	.	.	.	.
.	.	.	.	.	.	4f/	.	.	.	.	4f/	zło-	.	.	.	.	.	.	.	.	.	.	.
.	.	.	.	.	.	4f/	.	.	.	.	4f/	-sci	.	.	.	.	.	.	.	.	.	.	.
.	.	.	.	.	.	4f/	.	.	.	.	4f/	lu-	.	.	.	.	.	.	.	.	.	.	.
=107	=107	=107	=107	=107	=107	=107	=107	=107	=107	=107	=107	=107	=107	=107	=107	=107	=107	=107	=107	=107	=107	=107	=107
4C/	.	2f\	.	(8c/L	.	(8ee-\L	.	1ryy	1ryy	1ryy	2ee-\	-du	.	1ryy	1ryy	4C/	.	1ryy	1ryy	2ccc\	.	2eee-\	.
.	.	.	.	8A/)	.	8cc\)	.	.	.	.	.	.	.	.	.	.	.	.	.	.	.	.	.
4AA/	.	.	.	(8c/	.	(8ee-\	.	.	.	.	.	.	.	.	.	4AA/	.	.	.	.	.	.	.
.	.	.	.	8A/J)	.	8cc\J)	.	.	.	.	.	.	.	.	.	.	.	.	.	.	.	.	.
4BB-/	.	2f\	.	8B-/L	.	(8dd\L	.	.	.	.	2dd\	swo-	.	.	.	4BB-/	.	.	.	2bb-\	.	2ddd\	.
.	.	.	.	8d/	.	8b-\)	.	.	.	.	.	.	.	.	.	.	.	.	.	.	.	.	.
4D/	.	.	.	8B-/	.	(8dd\	.	.	.	.	.	.	.	.	.	4D/	.	.	.	.	.	.	.
.	.	.	.	8d/J	.	8b-\J)	.	.	.	.	.	.	.	.	.	.	.	.	.	.	.	.	.
=108	=108	=108	=108	=108	=108	=108	=108	=108	=108	=108	=108	=108	=108	=108	=108	=108	=108	=108	=108	=108	=108	=108	=108
.	.	.	.	.	.	.	.	.	.	.	16qqee-/	.	.	.	.	.	.	.	.	.	.	.	.
2F\	.	2f\	.	4.d/	.	4.b-\	.	1ryy	1ryy	1ryy	4.dd\	-ie-	.	1ryy	1ryy	2F\	.	1ryy	1ryy	4.bb-T\	.	4.dddt\	.
.	.	.	.	16c/LL	.	(16a/LL	.	.	.	.	16cc\LL	.	.	.	.	.	.	.	.	16aa\LL	.	16ccc\LL	.
.	.	.	.	16d/JJ	.	16b-/JJ	.	.	.	.	16dd\JJ	.	.	.	.	.	.	.	.	16bb-\JJ	.	16ddd\JJ	.
4FF/	.	4f\	.	4c/	.	4a/)	.	.	.	.	4cc\	-go	.	.	.	4FF/	.	.	.	4aa\	.	4ccc\	.
4r	.	4r	.	4r	.	4r	.	.	.	.	4r	.	.	.	.	4r	.	.	.	4r	.	4r	.
!	!	!	!	!	!	!	!	!	!	!	!LO:LB:g=original	!	!	!	!	!	!	!	!	!	!	!	!
=109	=109	=109	=109	=109	=109	=109	=109	=109	=109	=109	=109	=109	=109	=109	=109	=109	=109	=109	=109	=109	=109	=109	=109
!	!	!	!	!	!	!	!	!	!	!	!	!	!	!	!	!LO:TX:a:t=1	!	!	!	!LO:TX:a:t=1.	!	!LO:TX:a:t=1.	!
1r	.	1r	.	1r	.	4f/	.	1ryy	1ryy	1ryy	2f/	Dla	.	1ryy	1ryy	1r	.	1ryy	1ryy	1r	.	1r	.
.	.	.	.	.	.	4f/	.	.	.	.	.	.	.	.	.	.	.	.	.	.	.	.	.
.	.	.	.	.	.	4f/	.	.	.	.	4f/	zło-	.	.	.	.	.	.	.	.	.	.	.
.	.	.	.	.	.	4f/	.	.	.	.	4f/	-sci	.	.	.	.	.	.	.	.	.	.	.
!	!	!	!	!LO:LB:g=original	!	!	!	!	!	!	!	!	!	!	!	!	!	!	!	!	!	!	!
=110	=110	=110	=110	=110	=110	=110	=110	=110	=110	=110	=110	=110	=110	=110	=110	=110	=110	=110	=110	=110	=110	=110	=110
4C/	.	2f\	.	(8c/L	.	(8ee-\L	.	1ryy	1ryy	1ryy	2ee-\	lu-	.	1ryy	1ryy	4C/	.	1ryy	1ryy	2ccc\	.	2eee-\	.
.	.	.	.	8A/)	.	8cc\)	.	.	.	.	.	.	.	.	.	.	.	.	.	.	.	.	.
4AA/	.	.	.	(8c/	.	(8ee-\	.	.	.	.	.	.	.	.	.	4AA/	.	.	.	.	.	.	.
.	.	.	.	8A/J)	.	8cc\J)	.	.	.	.	.	.	.	.	.	.	.	.	.	.	.	.	.
!	!	!	!	!	!	!LO:LB:g=original	!	!	!	!	!	!	!	!	!	!	!	!	!	!	!	!	!
4BB-/	.	2f\	.	8B-/L	.	(8dd-X\L	.	.	.	.	2dd-X\	-du	.	.	.	4BB-/	.	.	.	2bb-\	.	2ddd-X\	.
.	.	.	.	8d-X/	.	8b-\)	.	.	.	.	.	.	.	.	.	.	.	.	.	.	.	.	.
4D-X/	.	.	.	8B-/	.	(8dd-\	.	.	.	.	.	.	.	.	.	4D-X/	.	.	.	.	.	.	.
.	.	.	.	8d-/J	.	8b-\J)	.	.	.	.	.	.	.	.	.	.	.	.	.	.	.	.	.
=111	=111	=111	=111	=111	=111	=111	=111	=111	=111	=111	=111	=111	=111	=111	=111	=111	=111	=111	=111	=111	=111	=111	=111
.	.	.	.	.	.	.	.	.	.	.	16qqee-/	.	.	.	.	.	.	.	.	.	.	.	.
!	!	!	!	!	!	!	!	!	!	!	!	!	!	!	!	!	!	!	!	!	!	!LO:SIC:v:o=4.dddt\	!
2F\	.	2f\	.	4.d-X/	.	4.b-/	.	1ryy	1ryy	1ryy	4.dd-X\	Swo-	.	1ryy	1ryy	2F\	.	1ryy	1ryy	4.bb-T\	.	4.ddd-t\	.
.	.	.	.	16c/LL	.	(16a/LL	.	.	.	.	16cc\LL	-ie-	.	.	.	.	.	.	.	(16aa\LL	.	16ccc\LL	.
.	.	.	.	16d-/JJ	.	16b-/JJ)	.	.	.	.	16dd-\JJ	.	.	.	.	.	.	.	.	16bb-\JJ)	.	16ddd\JJ	.
4FF/	.	4f\	.	4c/	.	4a/	.	.	.	.	4cc\	-go	.	.	.	4FF/	.	.	.	4aa\	.	4ccc\	.
8GG/L	.	4r	.	4r	.	4r	.	.	.	.	4r	.	.	.	.	8GG/L	.	.	.	4r	.	4r	.
8AA/J	.	.	.	.	.	.	.	.	.	.	.	.	.	.	.	8AA/J	.	.	.	.	.	.	.
=112	=112	=112	=112	=112	=112	=112	=112	=112	=112	=112	=112	=112	=112	=112	=112	=112	=112	=112	=112	=112	=112	=112	=112
!	!	!	!	!	!	!	!	!	!	!	!	!	!	!	!	!	!	!	!	!LO:TX:a:t=1.	!	!LO:TX:a:t=1.	!
2BB-/	.	1r	.	8dn/L	.	8b-'\L	.	1ryy	1ryy	1ryy	1r	.	.	1ryy	1ryy	2BB-/	.	1ryy	1ryy	1r	.	1r	.
.	.	.	.	8d/	.	8b-'\	.	.	.	.	.	.	.	.	.	.	.	.	.	.	.	.	.
.	.	.	.	16qqf/	.	16qqdd/	.	.	.	.	.	.	.	.	.	.	.	.	.	.	.	.	.
.	.	.	.	8e-/	.	(8cc\	.	.	.	.	.	.	.	.	.	.	.	.	.	.	.	.	.
.	.	.	.	8d/J	.	8b-\J)	.	.	.	.	.	.	.	.	.	.	.	.	.	.	.	.	.
2r	.	.	.	8b-\L	.	8dd'\L	.	.	.	.	.	.	.	.	.	2r	.	.	.	.	.	.	.
.	.	.	.	8b-\	.	8dd'\	.	.	.	.	.	.	.	.	.	.	.	.	.	.	.	.	.
.	.	.	.	16qqdd/	.	16qqff/	.	.	.	.	.	.	.	.	.	.	.	.	.	.	.	.	.
.	.	.	.	8cc\	.	(8ee-\	.	.	.	.	.	.	.	.	.	.	.	.	.	.	.	.	.
.	.	.	.	8b-\J	.	8dd\J)	.	.	.	.	.	.	.	.	.	.	.	.	.	.	.	.	.
!	!	!	!	!	!	!	!	!	!	!	!	!	!	!	!	!	!	!	!	!LO:LB:g=original	!	!	!
=113	=113	=113	=113	=113	=113	=113	=113	=113	=113	=113	=113	=113	=113	=113	=113	=113	=113	=113	=113	=113	=113	=113	=113
4r	.	4r	.	4r	.	2ff\	.	1ryy	1ryy	1ryy	2ff\	wi-	.	1ryy	1ryy	4r	.	1ryy	1ryy	1dd	.	1ff	.
4BB-/	.	4f\	.	4dd\	.	.	.	.	.	.	.	.	.	.	.	4BB-/	.	.	.	.	.	.	.
!	!	!	!	!	!	!	!	!	!	!	!	!	!	!	!	!LO:LB:g=original	!	!	!	!	!	!	!
4BB-/	.	4f\	.	4dd\	.	(8ee-\L	.	.	.	.	8ee-\L	-dzia-	.	.	.	4BB-/	.	.	.	.	.	.	.
.	.	.	.	.	.	8dd\	.	.	.	.	8dd\	.	.	.	.	.	.	.	.	.	.	.	.
4BB-/	.	4f\	.	4dd\	.	8cc\	.	.	.	.	8cc\	-ła	.	.	.	4BB-/	.	.	.	.	.	.	.
.	.	.	.	.	.	8b-\J)	.	.	.	.	8b-\J	.	.	.	.	.	.	.	.	.	.	.	.
=114	=114	=114	=114	=114	=114	=114	=114	=114	=114	=114	=114	=114	=114	=114	=114	=114	=114	=114	=114	=114	=114	=114	=114
4E-\	.	4g 4B-\	.	4dd\	.	(8a-X/L	.	1ryy	1ryy	1ryy	8a-X\L	tak	.	1ryy	1ryy	4E-\	.	1ryy	1ryy	4ee-\	.	4gg\	.
.	.	.	.	.	.	8g/J)	.	.	.	.	8g\J	.	.	.	.	.	.	.	.	.	.	.	.
.	.	.	.	.	.	16qqff/	.	.	.	.	16qqff/	.	.	.	.	.	.	.	.	.	.	.	.
4C\	.	4r	.	(8ee-\L	.	8ee-\L	.	.	.	.	8ee-\L	.	.	.	.	4C\	.	.	.	4r	.	4r	.
.	.	.	.	16dd\L	.	(16dd\L	.	.	.	.	16dd\L	.	.	.	.	.	.	.	.	.	.	.	.
.	.	.	.	16cc\JJ)	.	16cc\JJ)	.	.	.	.	16cc\JJ	.	.	.	.	.	.	.	.	.	.	.	.
4F\	.	4f\	.	(8g/L	.	4b-\	.	.	.	.	4b-\	zmę-	.	.	.	4F\	.	.	.	4b-/	.	4dd\	.
.	.	.	.	16f/L	.	.	.	.	.	.	.	.	.	.	.	.	.	.	.	.	.	.	.
.	.	.	.	16e-/JJ)	.	.	.	.	.	.	.	.	.	.	.	.	.	.	.	.	.	.	.
!	!	!	!	!	!	!LO:SIC:v:o=4a-\	!	!	!	!	!	!	!	!	!	!	!	!	!	!	!	!	!
4FF/	.	4f\	.	8d/L	.	4an\	.	.	.	.	4an\	-czo-	.	.	.	4FF/	.	.	.	4a/	.	4cc\	.
.	.	.	.	8c/J	.	.	.	.	.	.	.	.	.	.	.	.	.	.	.	.	.	.	.
=115	=115	=115	=115	=115	=115	=115	=115	=115	=115	=115	=115	=115	=115	=115	=115	=115	=115	=115	=115	=115	=115	=115	=115
!	!	!	!	!	!	!	!	!	!	!	!	!	!	!	!	!	!	!	!	!LO:TX:a:t=6	!	!LO:TX:a:t=6	!
8r	.	2f\	.	2b-\	.	(2dd\	.	1ryy	1ryy	1ryy	2dd\	-ne-	.	1ryy	1ryy	8r	.	1ryy	1ryy	00r	.	00r	.
8B-'\L	.	.	.	.	.	.	.	.	.	.	.	.	.	.	.	8B-|\L	.	.	.	.	.	.	.
(8A\	.	.	.	.	.	.	.	.	.	.	.	.	.	.	.	(8A\	.	.	.	.	.	.	.
8B-\J)	.	.	.	.	.	.	.	.	.	.	.	.	.	.	.	8B-\J)	.	.	.	.	.	.	.
8r	.	2B-/	.	2g/	.	2ee-\)	.	.	.	.	2ee-\	-go	.	.	.	8r	.	.	.	.	.	.	.
8G'\L	.	.	.	.	.	.	.	.	.	.	.	.	.	.	.	8G|\L	.	.	.	.	.	.	.
(8F#X\	.	.	.	.	.	.	.	.	.	.	.	.	.	.	.	(8F#X\	.	.	.	.	.	.	.
8G\J)	.	.	.	.	.	.	.	.	.	.	.	.	.	.	.	8G\J)	.	.	.	.	.	.	.
!LO:LB:g=original	!	!	!	!	!	!	!	!	!	!	!	!	!	!	!	!	!	!	!	!	!	!	!
=116	=116	=116	=116	=116	=116	=116	=116	=116	=116	=116	=116	=116	=116	=116	=116	=116	=116	=116	=116	=116	=116	=116	=116
8r	.	2B-/	.	2dd\	.	2ff\	.	1ryy	1ryy	1ryy	2ff\	Je-	.	1ryy	1ryy	8r	.	1ryy	1ryy	.	.	.	.
8D'/L	.	.	.	.	.	.	.	.	.	.	.	.	.	.	.	8D|\L	.	.	.	.	.	.	.
(8C/	.	.	.	.	.	.	.	.	.	.	.	.	.	.	.	(8C\	.	.	.	.	.	.	.
8D/J)	.	.	.	.	.	.	.	.	.	.	.	.	.	.	.	8D\J)	.	.	.	.	.	.	.
4E-'\	.	4B-/	.	4ee-\	.	4gg\	.	.	.	.	4gg\	-zu-	.	.	.	4E-\	.	.	.	.	.	.	.
!	!	!	!	!	!	!	!	!	!	!	!LO:LB:g=original	!	!	!	!	!	!	!	!	!	!	!	!
.	.	.	.	.	.	16qqff/	.	.	.	.	16qqff/	.	.	.	.	.	.	.	.	.	.	.	.
4C|\	.	4g\	.	8g/L	.	8ee-\L	.	.	.	.	8ee-\L	-sa	.	.	.	4C\	.	.	.	.	.	.	.
.	.	.	.	16f/L	.	16dd\L	.	.	.	.	16dd\L	.	.	.	.	.	.	.	.	.	.	.	.
.	.	.	.	16e-/JJ	.	16cc\JJ	.	.	.	.	16cc\JJ	.	.	.	.	.	.	.	.	.	.	.	.
=117	=117	=117	=117	=117	=117	=117	=117	=117	=117	=117	=117	=117	=117	=117	=117	=117	=117	=117	=117	=117	=117	=117	=117
4Fn\	.	4f\	.	4d/	.	4b-\	.	1ryy	1ryy	1ryy	4b-\	Sy-	.	1ryy	1ryy	4F\	.	1ryy	1ryy	.	.	.	.
4FF/	.	4f\	.	4c/	.	4a\	.	.	.	.	4a\	.	.	.	.	4FF/	.	.	.	.	.	.	.
8r	.	2f\	.	2b-\	.	2dd\	.	.	.	.	2dd\	-na	.	.	.	8r	.	.	.	.	.	.	.
8B-'\L	.	.	.	.	.	.	.	.	.	.	.	.	.	.	.	8B-|\L	.	.	.	.	.	.	.
(8A\	.	.	.	.	.	.	.	.	.	.	.	.	.	.	.	(8A\	.	.	.	.	.	.	.
8B-\J)	.	.	.	.	.	.	.	.	.	.	.	.	.	.	.	8B-\J)	.	.	.	.	.	.	.
!	!	!	!	!	!	!LO:LB:g=original	!	!	!	!	!	!	!	!	!	!	!	!	!	!	!	!	!
=118	=118	=118	=118	=118	=118	=118	=118	=118	=118	=118	=118	=118	=118	=118	=118	=118	=118	=118	=118	=118	=118	=118	=118
8r	.	2g\	.	2b-\	.	2ee-\	.	1ryy	1ryy	1ryy	2ee-\	swe-	.	1ryy	1ryy	8r	.	1ryy	1ryy	.	.	.	.
8G'\L	.	.	.	.	.	.	.	.	.	.	.	.	.	.	.	8G|\L	.	.	.	.	.	.	.
!LO:SIC:v:o=(8F\	!	!	!	!	!	!	!	!	!	!	!	!	!	!	!	!	!	!	!	!	!	!	!
(8F#\	.	.	.	.	.	.	.	.	.	.	.	.	.	.	.	(8F#X\	.	.	.	.	.	.	.
8G\J)	.	.	.	.	.	.	.	.	.	.	.	.	.	.	.	8G\J)	.	.	.	.	.	.	.
8r	.	2d\	.	2b-\	.	2ff\	.	.	.	.	2ff\	.	.	.	.	8r	.	.	.	.	.	.	.
8D|\L	.	.	.	.	.	.	.	.	.	.	.	.	.	.	.	8D|\L	.	.	.	.	.	.	.
(8C\	.	.	.	.	.	.	.	.	.	.	.	.	.	.	.	(8C\	.	.	.	.	.	.	.
8D\J)	.	.	.	.	.	.	.	.	.	.	.	.	.	.	.	8D\J)	.	.	.	.	.	.	.
!	!	!LO:LB:g=original	!	!LO:LB:g=original	!	!	!	!	!	!	!	!	!	!	!	!	!	!	!	!	!	!	!
=119	=119	=119	=119	=119	=119	=119	=119	=119	=119	=119	=119	=119	=119	=119	=119	=119	=119	=119	=119	=119	=119	=119	=119
4E-\	.	4b-\	.	4ee-\	.	(16gg\LL	.	1ryy	1ryy	1ryy	16gg\LL	.	.	1ryy	1ryy	4E-\	.	1ryy	1ryy	0r	.	0r	.
.	.	.	.	.	.	16aa\	.	.	.	.	16aa\	.	.	.	.	.	.	.	.	.	.	.	.
.	.	.	.	.	.	16bb-\	.	.	.	.	16bb-\	.	.	.	.	.	.	.	.	.	.	.	.
.	.	.	.	.	.	16aa\JJ)	.	.	.	.	16aa\JJ	.	.	.	.	.	.	.	.	.	.	.	.
4G\	.	4r	.	4r	.	(16bb-\LL	.	.	.	.	16bb-\LL	.	.	.	.	4G\	.	.	.	.	.	.	.
.	.	.	.	.	.	16gg\	.	.	.	.	16gg\	.	.	.	.	.	.	.	.	.	.	.	.
.	.	.	.	.	.	16ff\	.	.	.	.	16ff\	.	.	.	.	.	.	.	.	.	.	.	.
.	.	.	.	.	.	16ee-\JJ)	.	.	.	.	16ee-\JJ	.	.	.	.	.	.	.	.	.	.	.	.
4F\	.	4f\	.	4b-/	.	4dd\	.	.	.	.	4.dd\	.	.	.	.	4F\	.	.	.	.	.	.	.
4FF/	.	4f\	.	4a/	.	4cc\	.	.	.	.	.	.	.	.	.	4FF/	.	.	.	.	.	.	.
.	.	.	.	.	.	.	.	.	.	.	8cc\	.	.	.	.	.	.	.	.	.	.	.	.
=120	=120	=120	=120	=120	=120	=120	=120	=120	=120	=120	=120	=120	=120	=120	=120	=120	=120	=120	=120	=120	=120	=120	=120
(2F\	.	2f\	.	2a/	.	2cc\	.	1ryy	1ryy	1ryy	2cc\	.	.	1ryy	1ryy	2F\	.	1ryy	1ryy	.	.	.	.
4BB-\)	.	4f\	.	4b-/	.	4b-\	.	.	.	.	4b-\	-go	.	.	.	4BB-/	.	.	.	.	.	.	.
4r	.	4r	.	4r	.	4f/	.	.	.	.	4r	.	.	.	.	4r	.	.	.	.	.	.	.
=121	=121	=121	=121	=121	=121	=121	=121	=121	=121	=121	=121	=121	=121	=121	=121	=121	=121	=121	=121	=121	=121	=121	=121
!	!LO:DY:t=f&colon;	!	!	!	!LO:DY:a	!LO:TX:t=P:problem:mixed beam	!LO:DY:a:t=f&colon;	!	!	!	!LO:TX:a:t=12	!	!	!	!	!	!LO:DY:t=for&colon;	!	!	!	!LO:DY:t=f&colon;	!	!
2F\	f	2a\	.	2cc\	f	(8ee-\L	f	1ryy	1ryy	1ryy	00r	.	.	1ryy	1ryy	2F\	f	1ryy	1ryy	2ccc\	f	2eee-\	f
.	.	.	.	.	.	8f/)	.	.	.	.	.	.	.	.	.	.	.	.	.	.	.	.	.
.	.	.	.	.	.	8f'/	.	.	.	.	.	.	.	.	.	.	.	.	.	.	.	.	.
.	.	.	.	.	.	8f'/J	.	.	.	.	.	.	.	.	.	.	.	.	.	.	.	.	.
!	!	!	!	!	!	!LO:TX:t=P:problem:mixed beam	!	!	!	!	!	!	!	!	!	!	!	!	!	!	!	!	!
2r	.	2b-\	.	2dd\	.	(8dd\L	.	.	.	.	.	.	.	.	.	2r	.	.	.	2bb-\	.	2ddd\	.
.	.	.	.	.	.	8f/)	.	.	.	.	.	.	.	.	.	.	.	.	.	.	.	.	.
.	.	.	.	.	.	8f'/	.	.	.	.	.	.	.	.	.	.	.	.	.	.	.	.	.
.	.	.	.	.	.	8f'/J	.	.	.	.	.	.	.	.	.	.	.	.	.	.	.	.	.
=122	=122	=122	=122	=122	=122	=122	=122	=122	=122	=122	=122	=122	=122	=122	=122	=122	=122	=122	=122	=122	=122	=122	=122
2F\	.	2cc\	.	2ee-\	.	(8a/L	.	1ryy	1ryy	1ryy	.	.	.	1ryy	1ryy	2F\	.	1ryy	1ryy	2aa\	.	2ccc\	.
.	.	.	.	.	.	8f/)	.	.	.	.	.	.	.	.	.	.	.	.	.	.	.	.	.
.	.	.	.	.	.	8f'/	.	.	.	.	.	.	.	.	.	.	.	.	.	.	.	.	.
.	.	.	.	.	.	8f'/J	.	.	.	.	.	.	.	.	.	.	.	.	.	.	.	.	.
2r	.	2b-\	.	2dd\	.	(8b-/L	.	.	.	.	.	.	.	.	.	2r	.	.	.	2bb-\	.	2ddd\	.
.	.	.	.	.	.	8f/)	.	.	.	.	.	.	.	.	.	.	.	.	.	.	.	.	.
.	.	.	.	.	.	8f'/	.	.	.	.	.	.	.	.	.	.	.	.	.	.	.	.	.
.	.	.	.	.	.	8f'/J	.	.	.	.	.	.	.	.	.	.	.	.	.	.	.	.	.
=123	=123	=123	=123	=123	=123	=123	=123	=123	=123	=123	=123	=123	=123	=123	=123	=123	=123	=123	=123	=123	=123	=123	=123
!	!	!	!	!	!LO:DY:a	!LO:TX:t=P:problem:mixed beam	!LO:DY:a	!	!	!	!	!	!	!	!	!	!LO:DY:t=p&colon;	!	!	!	!	!	!
2F\	p	2a\	.	2cc\	p	(8ee-\L	p	1ryy	1ryy	1ryy	.	.	.	1ryy	1ryy	2F\	p	1ryy	1ryy	2ccc\	.	2eee-\	.
.	.	.	.	.	.	8f/)	.	.	.	.	.	.	.	.	.	.	.	.	.	.	.	.	.
.	.	.	.	.	.	8f'/	.	.	.	.	.	.	.	.	.	.	.	.	.	.	.	.	.
.	.	.	.	.	.	8f'/J	.	.	.	.	.	.	.	.	.	.	.	.	.	.	.	.	.
!	!	!	!	!	!	!LO:TX:t=P:problem:mixed beam	!	!	!	!	!	!	!	!	!	!	!	!	!	!	!	!	!
2r	.	2b-\	.	2dd\	.	(8dd\L	.	.	.	.	.	.	.	.	.	2r	.	.	.	2bb-\	.	2ddd\	.
.	.	.	.	.	.	8f/)	.	.	.	.	.	.	.	.	.	.	.	.	.	.	.	.	.
.	.	.	.	.	.	8f'/	.	.	.	.	.	.	.	.	.	.	.	.	.	.	.	.	.
.	.	.	.	.	.	8f'/J	.	.	.	.	.	.	.	.	.	.	.	.	.	.	.	.	.
=124	=124	=124	=124	=124	=124	=124	=124	=124	=124	=124	=124	=124	=124	=124	=124	=124	=124	=124	=124	=124	=124	=124	=124
2F\	.	2cc\	.	2ee-\	.	(8a/L	.	1ryy	1ryy	1ryy	.	.	.	1ryy	1ryy	2F\	.	1ryy	1ryy	2aa\	.	2ccc\	.
.	.	.	.	.	.	8f/)	.	.	.	.	.	.	.	.	.	.	.	.	.	.	.	.	.
.	.	.	.	.	.	8f'/	.	.	.	.	.	.	.	.	.	.	.	.	.	.	.	.	.
.	.	.	.	.	.	8f'/J	.	.	.	.	.	.	.	.	.	.	.	.	.	.	.	.	.
2r	.	2b-\	.	2dd\	.	(8b-/L	.	.	.	.	.	.	.	.	.	2r	.	.	.	2bb-\	.	2ddd\	.
.	.	.	.	.	.	8f/)	.	.	.	.	.	.	.	.	.	.	.	.	.	.	.	.	.
.	.	.	.	.	.	8f'/	.	.	.	.	.	.	.	.	.	.	.	.	.	.	.	.	.
.	.	.	.	.	.	8f'/J	.	.	.	.	.	.	.	.	.	.	.	.	.	.	.	.	.
!	!	!	!	!	!	!	!	!	!	!	!	!	!	!	!	!LO:LB:g=original	!	!	!	!	!	!LO:LB:g=original	!
=125	=125	=125	=125	=125	=125	=125	=125	=125	=125	=125	=125	=125	=125	=125	=125	=125	=125	=125	=125	=125	=125	=125	=125
!	!	!	!	!	!	!	!LO:DY:a:t=f&colon;	!	!	!	!	!	!	!	!	!	!	!	!	!	!LO:DY:t=ff&colon;	!	!
4r	.	4r	.	4r	.	4b-\	f	1ryy	1ryy	1ryy	00r	.	.	1ryy	1ryy	4r	.	1ryy	1ryy	4r	ff	4r	.
!	!	!	!	!	!	!LO:LB:g=original	!	!	!	!	!	!	!	!	!	!	!	!	!	!	!	!	!
!	!LO:DY:t=ffr.	!	!	!	!	!LO:SIC:v:n=1:o=4aa 4b- 4d/	!	!	!	!	!	!	!	!	!	!	!LO:DY:t=f&colon;	!	!	!	!	!	!LO:DY:t=ff&colon;
4BB-/	ff	4d\	.	4dd 4f/	.	4aa-	.	.	.	.	.	.	.	.	.	4BB-/	f	.	.	4ff\	.	4aa-X\	ff
!	!	!	!	!	!	!LO:SIC:v:n=1:o=4aa 4b- 4d/	!	!	!	!	!	!	!	!	!	!	!	!	!	!	!	!	!
4BB-/	.	4d\	.	4dd 4f/	.	4aa-	.	.	.	.	.	.	.	.	.	4BB-/	.	.	.	4ff\	.	4aa-\	.
!	!	!	!	!	!	!LO:SIC:v:n=1:o=4aa 4b- 4d/	!	!	!	!	!	!	!	!	!	!	!	!	!	!	!	!	!
4BB-/	.	4d\	.	4dd 4f/	.	4aa-	.	.	.	.	.	.	.	.	.	4BB-/	.	.	.	4ff\	.	4aa-\	.
!LO:LB:g=original	!	!	!	!	!	!	!	!	!	!	!	!	!	!	!	!	!	!	!	!	!	!	!
=126	=126	=126	=126	=126	=126	=126	=126	=126	=126	=126	=126	=126	=126	=126	=126	=126	=126	=126	=126	=126	=126	=126	=126
!	!	!	!	!	!	!	!	!	!	!	!	!	!	!	!	!	!	!	!	!	!	!LO:SIC:v:o=16qqaa/	!
.	.	.	.	.	.	.	.	.	.	.	.	.	.	.	.	.	.	.	.	.	.	16qqaa-/	.
!	!	!	!	!LO:TX:t=P:problem:mixed beam	!LO:DY:a	!LO:SIC:v:o=(8aa\L	!LO:DY:a	!	!	!	!	!	!	!	!	!	!	!	!	!	!	!	!
4E-\	.	4g 4B-\	.	(<8ee-\L	p	(8aa-\L	p	1ryy	1ryy	1ryy	.	.	.	1ryy	1ryy	4E-\	.	1ryy	1ryy	4ee-\	.	4gg\	.
.	.	.	.	8g/	.	8gg\	.	.	.	.	.	.	.	.	.	.	.	.	.	.	.	.	.
4r	.	4r	.	8f#X/	.	8ff#X\	.	.	.	.	.	.	.	.	.	4r	.	.	.	4r	.	4r	.
.	.	.	.	8g/J)	.	8gg\J)	.	.	.	.	.	.	.	.	.	.	.	.	.	.	.	.	.
2r	.	2r	.	(8fn/L	.	(8ffn\L	.	.	.	.	.	.	.	.	.	2r	.	.	.	2r	.	2r	.
.	.	.	.	8e-/	.	8ee-\	.	.	.	.	.	.	.	.	.	.	.	.	.	.	.	.	.
.	.	.	.	8d/	.	8dd\	.	.	.	.	.	.	.	.	.	.	.	.	.	.	.	.	.
.	.	.	.	8c/J)	.	8cc\J)	.	.	.	.	.	.	.	.	.	.	.	.	.	.	.	.	.
=127	=127	=127	=127	=127	=127	=127	=127	=127	=127	=127	=127	=127	=127	=127	=127	=127	=127	=127	=127	=127	=127	=127	=127
!	!	!	!	!LO:SIC:v:o=4e-/	!	!	!	!	!	!	!	!	!	!	!	!	!	!	!	!	!	!	!
4D\	.	2r	.	4f/	.	4ff\	f	1ryy	1ryy	1ryy	.	.	.	1ryy	1ryy	4D\	.	1ryy	1ryy	2r	.	4ffT\	.
4E-\	.	.	.	(16e-/LL	.	(16ee-\LL	.	.	.	.	.	.	.	.	.	4E-\	.	.	.	.	.	(16ee-\LL	.
.	.	.	.	16d/	.	16dd\	.	.	.	.	.	.	.	.	.	.	.	.	.	.	.	16dd\	.
.	.	.	.	16c/	.	16cc\	.	.	.	.	.	.	.	.	.	.	.	.	.	.	.	16cc\	.
.	.	.	.	16d/JJ)	.	16dd\JJ)	.	.	.	.	.	.	.	.	.	.	.	.	.	.	.	16b-\JJ)	.
4F\	.	4c\	.	4a/	.	4f/	.	.	.	.	.	.	.	.	.	4F\	.	.	.	4r	.	4ff\	.
4FF/	.	4c\	.	4a/	.	4cc\	.	.	.	.	.	.	.	.	.	4FF/	.	.	.	4ff\	.	4aa\	.
=128	=128	=128	=128	=128	=128	=128	=128	=128	=128	=128	=128	=128	=128	=128	=128	=128	=128	=128	=128	=128	=128	=128	=128
*	*	*	*	*	*	*^	*	*	*	*	*	*	*	*	*	*	*	*	*	*	*	*	*
*	*	*	*	*	*	*cue	*	*	*	*	*	*	*	*	*	*	*	*	*	*	*	*	*	*
!	!	!	!	!	!LO:DY:a	!	!	!	!	!	!	!	!	!	!	!	!	!LO:DY:t=p&colon;	!	!	!	!	!	!LO:DY:t=p&colon;
4BB-/	p	4f\	.	(8d/L	p	8ff/L	(8f/L	p	1ryy	1ryy	1ryy	.	.	.	1ryy	1ryy	4BB-/	p	1ryy	1ryy	(8dd\L	p	(8ff\L	p
.	.	.	.	8B-/)	.	8dd/	8d/	.	.	.	.	.	.	.	.	.	.	.	.	.	8b-\)	.	8dd\)	.
4r	.	4d\	.	(8d/	.	8ff/	8f/	.	.	.	.	.	.	.	.	.	4r	.	.	.	(8dd\	.	(8ff\	.
.	.	.	.	8B-/J)	.	8dd/J	8d/J)	.	.	.	.	.	.	.	.	.	.	.	.	.	8b-\J)	.	8dd\J)	.
!	!	!	!LO:DY:t=p&colon;	!	!	!	!	!	!	!	!	!	!	!	!	!	!	!	!	!	!	!	!	!
4E-\	.	4e-\	p	(8g/L	.	8bb-/L	8b-\L	.	.	.	.	.	.	.	.	.	4E-\	.	.	.	(8gg\L	.	(8bb-\L	.
.	.	.	.	8e-/)	.	8gg/	8g\	.	.	.	.	.	.	.	.	.	.	.	.	.	8ee-\)	.	8gg\)	.
4r	.	4g\	.	(8g/	.	8bb-/	8b-\	.	.	.	.	.	.	.	.	.	4r	.	.	.	(8gg\	.	(8bb-\	.
.	.	.	.	8e-/J)	.	8gg/J	8g\J	.	.	.	.	.	.	.	.	.	.	.	.	.	8ee-\J)	.	8gg\J)	.
=129	=129	=129	=129	=129	=129	=129	=129	=129	=129	=129	=129	=129	=129	=129	=129	=129	=129	=129	=129	=129	=129	=129	=129	=129
!	!	!LO:TX:t=P:problem:fragment oznaczony znakiem repetycji	!	!	!	!	!	!	!	!	!	!	!	!	!	!	!	!	!	!	!	!	!	!
4BB-/	.	4f\yy	.	(8d/L	.	8ff/L	(8f/L	.	1ryy	1ryy	1ryy	00r	.	.	1ryy	1ryy	4BB-/	.	1ryy	1ryy	(8dd\L	.	(8ff\L	.
.	.	.	.	8B-/)	.	8dd/	8d/	.	.	.	.	.	.	.	.	.	.	.	.	.	8b-\)	.	8dd\)	.
4r	.	4d\yy	.	(8d/	.	8ff/	8f/	.	.	.	.	.	.	.	.	.	4r	.	.	.	(8dd\	.	(8ff\	.
.	.	.	.	8B-/J)	.	8dd/J	8d/J)	.	.	.	.	.	.	.	.	.	.	.	.	.	8b-\J)	.	8dd\J)	.
!	!	!	!	!LO:LB:g=original	!	!	!	!	!	!	!	!	!	!	!	!	!	!	!	!	!	!	!	!
4E-\	.	4e-\yy	.	(8g/L	.	8bb-/L	8b-\L	.	.	.	.	.	.	.	.	.	4E-\	.	.	.	(8gg\L	.	(8bb-\L	.
.	.	.	.	8e-/)	.	8gg/	8g\	.	.	.	.	.	.	.	.	.	.	.	.	.	8ee-\)	.	8gg\)	.
4r	.	4g\yy	.	(8g/	.	8bb-/	8b-\	.	.	.	.	.	.	.	.	.	4r	.	.	.	(8gg\	.	(8bb-\	.
.	.	.	.	8e-/J)	.	8gg/J	8g\J	.	.	.	.	.	.	.	.	.	.	.	.	.	8ee-\J)	.	8gg\J)	.
=130	=130	=130	=130	=130	=130	=130	=130	=130	=130	=130	=130	=130	=130	=130	=130	=130	=130	=130	=130	=130	=130	=130	=130	=130
!	!	!	!	!	!	!	!	!	!	!	!	!	!	!	!	!	!	!LO:DY:t=for&colon;	!	!	!	!	!	!LO:DY:t=f&colon;
4D\	.	4f\	f	4d/	.	16ff/LL	16f/LL	.	1ryy	1ryy	1ryy	.	.	.	1ryy	1ryy	4D\	f	1ryy	1ryy	4dd\	f	(16ff\LL	f
.	.	.	.	.	.	16gg/	16g/	.	.	.	.	.	.	.	.	.	.	.	.	.	.	.	16gg\	.
.	.	.	.	.	.	16aa/	16a/	.	.	.	.	.	.	.	.	.	.	.	.	.	.	.	16aa\	.
.	.	.	.	.	.	16bb-/JJ	16b-/JJ	.	.	.	.	.	.	.	.	.	.	.	.	.	.	.	16bb-\JJ)	.
4E-\	.	4g\	.	4e-/	.	16gg/LL	16g/LL	.	.	.	.	.	.	.	.	.	4E-\	.	.	.	4ee-\	.	(16gg\LL	.
.	.	.	.	.	.	16aa/	16a/	.	.	.	.	.	.	.	.	.	.	.	.	.	.	.	16aa\	.
.	.	.	.	.	.	16bb-/	16b-/	.	.	.	.	.	.	.	.	.	.	.	.	.	.	.	16bb-\	.
.	.	.	.	.	.	16ccc/JJ	16cc/JJ	.	.	.	.	.	.	.	.	.	.	.	.	.	.	.	16ccc\JJ)	.
!	!	!	!	!LO:TX:a:i:t=perdendosi.	!	!	!	!	!	!	!	!	!	!	!	!	!	!	!	!	!	!	!	!
4F\	.	4f\	.	4d/	.	4bb-/	4b-/	.	.	.	.	.	.	.	.	.	4F\	.	.	.	4dd\	.	4bb-\	.
4FF/	.	4f\	.	4c/	.	4aa/	4a/	.	.	.	.	.	.	.	.	.	4FF/	.	.	.	4cc\	.	4aa\	.
=131	=131	=131	=131	=131	=131	=131	=131	=131	=131	=131	=131	=131	=131	=131	=131	=131	=131	=131	=131	=131	=131	=131	=131	=131
!LO:TX:b:i:t=perdendosi	!	!	!	!	!	!	!	!	!	!	!	!	!	!	!	!	!	!	!	!	!LO:TX:b:i:t=perdendosi	!	!	!
4BB-/	.	4f\	.	4d/	.	4bb-/	4b-\	.	1ryy	1ryy	1ryy	.	.	.	1ryy	1ryy	4BB-/	.	1ryy	1ryy	4dd\	.	(4bb-\	.
*	*	*	*	*	*	*Xcue	*	*	*	*	*	*	*	*	*	*	*	*	*	*	*	*	*	*
4r	.	2B-/	.	2f/	.	2dd\	4ryy	.	.	.	.	.	.	.	.	.	4r	.	.	.	(2ff\	.	2ddd\	.
4r	.	.	.	.	.	.	2ryy	.	.	.	.	.	.	.	.	.	4r	.	.	.	.	.	.	.
!	!	!LO:TX:b:i:t=perdendosi	!	!	!	!	!	!	!	!	!	!	!	!	!	!	!	!	!	!	!	!	!	!
4F\	.	4f\	.	4e-/	.	4cc\	.	.	.	.	.	.	.	.	.	.	4F\	.	.	.	4ee-\)	.	4ccc\)	.
*	*	*	*	*	*	*v	*v	*	*	*	*	*	*	*	*	*	*	*	*	*	*	*	*	*
=132	=132	=132	=132	=132	=132	=132	=132	=132	=132	=132	=132	=132	=132	=132	=132	=132	=132	=132	=132	=132	=132	=132	=132
(2F\	.	(2a\	.	2e-/	.	2cc\	.	1ryy	1ryy	1ryy	.	.	.	1ryy	1ryy	2F\	.	1ryy	1ryy	2ee-\	.	2ccc\	.
4BB-\)	.	4f\)	.	4d/	.	4b-\	.	.	.	.	.	.	.	.	.	4BB-/	.	.	.	4dd\	.	4bb-\	.
4r	.	4r	.	4r	.	4r	.	.	.	.	.	.	.	.	.	4r	.	.	.	4r	.	4r	.
==	==	==	==	==	==	==	==	==	==	==	==	==	==	==	==	==	==	==	==	==	==	==	==
*-	*-	*-	*-	*-	*-	*-	*-	*-	*-	*-	*-	*-	*-	*-	*-	*-	*-	*-	*-	*-	*-	*-	*-
!!!system-decoration: [(g1)][(g2)][(g3)][(g4)]<s15>
!!!RDF**kern: < = below
!!!RDF**kern: | = vertical stroke
!!!ENC: Katarzyna Serwa
!!!END: 2020-11-10
!!!ENC: Andrzej Kubiczek
!!!END: 2022-04-24
